;FLAVOR:Marlin
;TIME:6377
;Filament used: 5.86788m
;Layer height: 0.2
;MINX:68.304
;MINY:164.813
;MINZ:0.2
;MAXX:138.654
;MAXY:235.186
;MAXZ:11
;Generated with Cura_SteamEngine 5.0.0
M140 S55
M105
M190 S55
M104 S195
M105
M109 S195
M82 ;absolute extrusion mode
M107 ;Start with the fan off
G21 ;Set units to millimeters
G91 ;Change to relative positioning mode for retract filament and nozzle lifting
G1 F200 E-3 ;Retract 3mm filament for a clean start
G92 E0 ;Zero the extruded length
G1 F1000 Z5 ;Lift the nozzle 5mm before homing axes
G90 ;Absolute positioning
M82 ;Set extruder to absolute mode too
G28 X0 Y0 ;First move X/Y to min endstops
G28 Z0 ;Then move Z to min endstops
G1 F1000 Z15 ;After homing lift the nozzle 15mm before start printing

G92 E0
G92 E0
G1 F2400 E-6
;LAYER_COUNT:55
;LAYER:0
M106 S255
M204 S3000
M205 X10 Y10
G1 F600 Z0.275
G0 F3000 X87.9 Y168.433 Z0.275
G1 F600 Z0.2
G0 F3000 X84.632 Y170.268
M204 S1800
M205 X8 Y8
;TYPE:SKIRT
G1 F2400 E0
G1 X85.01 Y170.031 E0.02077
G1 X87.9 Y168.433 E0.17455
G1 X88.303 Y168.238 E0.19539
G1 X91.342 Y166.959 E0.34892
G1 X91.76 Y166.808 E0.36962
G1 X94.891 Y165.865 E0.52188
G1 X95.327 Y165.759 E0.54277
G1 X98.602 Y165.144 E0.69794
G1 X99.046 Y165.085 E0.71879
G1 X102.334 Y164.825 E0.87237
G1 X102.777 Y164.813 E0.89301
G1 X106.045 Y164.9 E1.04524
G1 X106.494 Y164.937 E1.06621
G1 X109.795 Y165.382 E1.22131
G1 X110.231 Y165.464 E1.24197
G1 X113.406 Y166.24 E1.39416
G1 X113.834 Y166.369 E1.41498
G1 X116.94 Y167.489 E1.56872
G1 X117.351 Y167.662 E1.58949
G1 X120.316 Y169.103 E1.74299
G1 X120.712 Y169.323 E1.76409
G1 X123.535 Y171.094 E1.91926
G1 X123.9 Y171.351 E1.94005
G1 X126.493 Y173.391 E2.09368
G1 X126.825 Y173.682 E2.11423
G1 X129.167 Y175.961 E2.2664
G1 X129.475 Y176.295 E2.28755
G1 X131.596 Y178.861 E2.44257
G1 X131.86 Y179.217 E2.46321
G1 X133.682 Y181.967 E2.61682
G1 X133.908 Y182.35 E2.63752
G1 X135.416 Y185.252 E2.78981
G1 X135.602 Y185.663 E2.81081
G1 X136.813 Y188.768 E2.966
G1 X136.952 Y189.188 E2.9866
G1 X137.812 Y192.34 E3.13874
G1 X137.907 Y192.783 E3.15984
G1 X138.433 Y196.071 E3.31489
G1 X138.48 Y196.51 E3.33544
G1 X138.654 Y199.775 E3.48769
G1 X138.654 Y200.226 E3.50869
G1 X138.474 Y203.55 E3.6637
G1 X138.427 Y203.99 E3.6843
G1 X137.907 Y207.221 E3.83669
G1 X137.811 Y207.664 E3.85779
G1 X136.932 Y210.873 E4.01272
G1 X136.793 Y211.292 E4.03328
G1 X135.602 Y214.338 E4.18557
G1 X135.415 Y214.749 E4.2066
G1 X133.877 Y217.702 E4.36163
G1 X133.649 Y218.088 E4.38251
G1 X131.821 Y220.837 E4.53623
G1 X131.558 Y221.19 E4.55673
G1 X129.473 Y223.707 E4.70892
G1 X129.166 Y224.04 E4.73001
G1 X126.779 Y226.359 E4.88497
G1 X126.445 Y226.651 E4.90563
G1 X123.873 Y228.67 E5.05789
G1 X123.505 Y228.928 E5.07881
G1 X120.68 Y230.693 E5.23392
G1 X120.287 Y230.91 E5.25483
G1 X117.319 Y232.349 E5.40841
G1 X116.908 Y232.522 E5.42918
G1 X113.801 Y233.639 E5.58292
G1 X113.373 Y233.768 E5.60373
G1 X110.169 Y234.548 E5.75728
G1 X109.733 Y234.63 E5.77794
G1 X106.49 Y235.064 E5.9303
G1 X106.041 Y235.1 E5.95127
G1 X102.713 Y235.186 E6.10629
G1 X102.266 Y235.173 E6.12711
G1 X98.979 Y234.907 E6.28067
G1 X98.534 Y234.847 E6.30158
G1 X95.29 Y234.231 E6.45533
G1 X94.859 Y234.126 E6.47599
G1 X91.701 Y233.172 E6.6296
G1 X91.279 Y233.019 E6.6505
G1 X88.24 Y231.733 E6.80416
G1 X87.842 Y231.539 E6.82477
G1 X84.983 Y229.955 E6.97697
G1 X84.599 Y229.715 E6.99805
G1 X81.876 Y227.797 E7.15314
G1 X81.526 Y227.521 E7.1739
G1 X79.046 Y225.346 E7.3275
G1 X78.727 Y225.035 E7.34824
G1 X76.489 Y222.608 E7.50197
G1 X76.203 Y222.263 E7.52283
G1 X74.237 Y219.612 E7.67652
G1 X73.99 Y219.239 E7.69735
G1 X72.318 Y216.395 E7.85097
G1 X72.112 Y215.997 E7.87184
G1 X70.752 Y212.991 E8.02547
G1 X70.59 Y212.574 E8.0463
G1 X69.558 Y209.442 E8.19985
G1 X69.441 Y209.012 E8.2206
G1 X68.746 Y205.784 E8.37435
G1 X68.675 Y205.343 E8.39515
G1 X68.327 Y202.064 E8.54869
G1 X68.304 Y201.617 E8.56954
G1 X68.307 Y198.317 E8.7232
G1 X68.331 Y197.87 E8.74404
G1 X68.685 Y194.59 E8.89766
G1 X68.757 Y194.149 E8.91847
G1 X69.458 Y190.923 E9.07219
G1 X69.575 Y190.493 E9.09294
G1 X70.613 Y187.363 E9.24649
G1 X70.777 Y186.946 E9.26735
G1 X72.143 Y183.942 E9.42102
G1 X72.35 Y183.545 E9.44186
G1 X74.028 Y180.704 E9.5955
G1 X74.275 Y180.332 E9.6163
G1 X76.246 Y177.685 E9.76997
G1 X76.532 Y177.341 E9.7908
G1 X78.774 Y174.918 E9.94451
G1 X79.091 Y174.61 E9.9651
G1 X81.552 Y172.456 E10.11738
G1 X81.908 Y172.177 E10.13845
G1 X84.632 Y170.268 E10.29333
M204 S3000
M205 X10 Y10
G1 F2400 E4.29333
G0 F3000 X81.921 Y172.877
M204 S1800
M205 X8 Y8
G1 F2400 E10.29333
G1 X82.229 Y172.635 E10.31157
G1 X84.953 Y170.726 E10.46646
G1 X85.281 Y170.522 E10.48445
G1 X88.171 Y168.924 E10.63822
G1 X88.52 Y168.754 E10.65629
G1 X91.559 Y167.475 E10.80983
G1 X91.921 Y167.345 E10.82774
G1 X95.052 Y166.402 E10.98
G1 X95.43 Y166.31 E10.99811
G1 X98.705 Y165.695 E11.15328
G1 X99.09 Y165.643 E11.17137
G1 X102.378 Y165.383 E11.32495
G1 X102.762 Y165.373 E11.34283
G1 X106.03 Y165.46 E11.49506
G1 X106.419 Y165.492 E11.51323
G1 X109.72 Y165.937 E11.66833
G1 X110.098 Y166.008 E11.68624
G1 X113.273 Y166.784 E11.83843
G1 X113.644 Y166.896 E11.85648
G1 X116.75 Y168.016 E12.01022
G1 X117.106 Y168.166 E12.02821
G1 X120.071 Y169.607 E12.18172
G1 X120.414 Y169.798 E12.2
G1 X123.237 Y171.569 E12.35517
G1 X123.554 Y171.791 E12.37319
G1 X126.147 Y173.831 E12.52682
G1 X126.435 Y174.083 E12.54464
G1 X128.777 Y176.362 E12.69681
G1 X129.044 Y176.652 E12.71516
G1 X131.165 Y179.218 E12.87018
G1 X131.393 Y179.527 E12.88806
G1 X133.215 Y182.277 E13.04167
G1 X133.411 Y182.609 E13.05962
G1 X134.919 Y185.511 E13.2119
G1 X135.08 Y185.866 E13.23005
G1 X136.291 Y188.971 E13.38524
G1 X136.412 Y189.336 E13.40315
G1 X137.272 Y192.488 E13.55528
G1 X137.354 Y192.871 E13.57352
G1 X137.88 Y196.159 E13.72857
G1 X137.921 Y196.54 E13.74642
G1 X138.095 Y199.805 E13.89866
G1 X138.095 Y200.196 E13.91687
G1 X137.915 Y203.52 E14.07188
G1 X137.874 Y203.901 E14.08972
G1 X137.354 Y207.132 E14.2421
G1 X137.271 Y207.516 E14.2604
G1 X136.392 Y210.725 E14.41533
G1 X136.271 Y211.089 E14.43319
G1 X135.08 Y214.135 E14.58548
G1 X134.918 Y214.49 E14.60365
G1 X133.38 Y217.443 E14.75869
G1 X133.183 Y217.778 E14.77678
G1 X131.355 Y220.527 E14.9305
G1 X131.127 Y220.833 E14.94827
G1 X129.042 Y223.35 E15.10046
G1 X128.775 Y223.639 E15.11879
G1 X126.388 Y225.958 E15.27375
G1 X126.1 Y226.21 E15.29157
G1 X123.528 Y228.229 E15.44383
G1 X123.209 Y228.453 E15.46198
G1 X120.384 Y230.218 E15.61708
G1 X120.043 Y230.406 E15.63521
G1 X117.075 Y231.845 E15.7888
G1 X116.718 Y231.995 E15.80684
G1 X113.611 Y233.112 E15.96058
G1 X113.241 Y233.224 E15.97858
G1 X110.037 Y234.004 E16.13213
G1 X109.659 Y234.075 E16.15003
G1 X106.416 Y234.509 E16.30239
G1 X106.027 Y234.54 E16.32056
G1 X102.699 Y234.626 E16.47558
G1 X102.311 Y234.615 E16.49365
G1 X99.024 Y234.349 E16.64721
G1 X98.639 Y234.297 E16.6653
G1 X95.395 Y233.681 E16.81905
G1 X95.021 Y233.589 E16.83699
G1 X91.863 Y232.635 E16.9906
G1 X91.497 Y232.503 E17.00872
G1 X88.458 Y231.217 E17.16237
G1 X88.113 Y231.049 E17.18024
G1 X85.254 Y229.465 E17.33243
G1 X84.922 Y229.257 E17.35068
G1 X82.199 Y227.339 E17.50577
G1 X81.895 Y227.1 E17.52377
G1 X79.415 Y224.925 E17.67737
G1 X79.139 Y224.656 E17.69532
G1 X76.901 Y222.229 E17.84904
G1 X76.653 Y221.929 E17.86717
G1 X74.687 Y219.278 E18.02085
G1 X74.473 Y218.955 E18.03889
G1 X72.801 Y216.111 E18.19251
G1 X72.623 Y215.766 E18.21059
G1 X71.263 Y212.76 E18.36422
G1 X71.122 Y212.399 E18.38227
G1 X70.09 Y209.267 E18.53582
G1 X69.989 Y208.894 E18.55381
G1 X69.294 Y205.666 E18.70757
G1 X69.232 Y205.284 E18.72559
G1 X68.884 Y202.005 E18.87913
G1 X68.864 Y201.618 E18.89717
G1 X68.867 Y198.318 E19.05083
G1 X68.888 Y197.93 E19.06893
G1 X69.242 Y194.65 E19.22254
G1 X69.304 Y194.268 E19.24056
G1 X70.005 Y191.042 E19.39429
G1 X70.107 Y190.669 E19.41229
G1 X71.145 Y187.539 E19.56584
G1 X71.286 Y187.178 E19.58389
G1 X72.652 Y184.174 E19.73755
G1 X72.832 Y183.83 E19.75563
G1 X74.51 Y180.989 E19.90927
G1 X74.724 Y180.666 E19.92731
G1 X76.695 Y178.019 E20.08098
G1 X76.943 Y177.721 E20.09904
G1 X79.185 Y175.298 E20.25275
G1 X79.46 Y175.031 E20.2706
G1 X81.921 Y172.877 E20.42289
M204 S3000
M205 X10 Y10
G1 F2400 E14.42289
G0 F3000 X79.596 Y175.678
M204 S1800
M205 X8 Y8
G1 F2400 E20.42289
G1 X79.828 Y175.452 E20.43797
G1 X82.289 Y173.298 E20.59026
G1 X82.55 Y173.094 E20.60568
G1 X85.274 Y171.185 E20.76057
G1 X85.552 Y171.012 E20.77582
G1 X88.442 Y169.414 E20.92959
G1 X88.737 Y169.27 E20.94488
G1 X91.776 Y167.991 E21.09841
G1 X92.083 Y167.881 E21.11359
G1 X95.214 Y166.938 E21.26585
G1 X95.534 Y166.86 E21.28119
G1 X98.809 Y166.245 E21.43635
G1 X99.134 Y166.202 E21.45162
G1 X102.422 Y165.942 E21.6052
G1 X102.747 Y165.933 E21.62034
G1 X106.015 Y166.02 E21.77256
G1 X106.344 Y166.047 E21.78793
G1 X109.645 Y166.492 E21.94303
G1 X109.965 Y166.552 E21.95819
G1 X113.14 Y167.328 E22.11039
G1 X113.454 Y167.423 E22.12566
G1 X116.56 Y168.543 E22.27941
G1 X116.861 Y168.67 E22.29462
G1 X119.826 Y170.111 E22.44812
G1 X120.117 Y170.272 E22.46361
G1 X122.94 Y172.043 E22.61879
G1 X123.207 Y172.231 E22.63399
G1 X125.8 Y174.271 E22.78762
G1 X126.044 Y174.485 E22.80273
G1 X128.386 Y176.764 E22.9549
G1 X128.612 Y177.009 E22.97042
G1 X130.733 Y179.575 E23.12543
G1 X130.927 Y179.836 E23.14058
G1 X132.749 Y182.586 E23.29418
G1 X132.914 Y182.867 E23.30936
G1 X134.422 Y185.769 E23.46164
G1 X134.558 Y186.07 E23.47702
G1 X135.769 Y189.175 E23.63221
G1 X135.871 Y189.483 E23.64732
G1 X136.731 Y192.635 E23.79945
G1 X136.801 Y192.959 E23.81489
G1 X137.327 Y196.247 E23.96994
G1 X137.362 Y196.57 E23.98507
G1 X137.536 Y199.835 E24.13731
G1 X137.535 Y200.166 E24.15273
G1 X137.355 Y203.49 E24.30773
G1 X137.321 Y203.812 E24.32281
G1 X136.801 Y207.043 E24.4752
G1 X136.731 Y207.368 E24.49068
G1 X135.852 Y210.577 E24.6456
G1 X135.75 Y210.885 E24.66071
G1 X134.559 Y213.931 E24.813
G1 X134.422 Y214.232 E24.8284
G1 X132.884 Y217.185 E24.98344
G1 X132.717 Y217.467 E24.9987
G1 X130.889 Y220.216 E25.15242
G1 X130.696 Y220.476 E25.1675
G1 X128.611 Y222.993 E25.31969
G1 X128.385 Y223.237 E25.33518
G1 X125.998 Y225.556 E25.49014
G1 X125.754 Y225.77 E25.50526
G1 X123.182 Y227.789 E25.65751
G1 X122.912 Y227.978 E25.67286
G1 X120.087 Y229.743 E25.82796
G1 X119.799 Y229.902 E25.84328
G1 X116.831 Y231.341 E25.99687
G1 X116.529 Y231.468 E26.01213
G1 X113.422 Y232.585 E26.16587
G1 X113.109 Y232.68 E26.1811
G1 X109.905 Y233.46 E26.33465
G1 X109.585 Y233.52 E26.34981
G1 X106.342 Y233.954 E26.50216
G1 X106.013 Y233.98 E26.51753
G1 X102.685 Y234.066 E26.67255
G1 X102.357 Y234.057 E26.68783
G1 X99.07 Y233.791 E26.84138
G1 X98.743 Y233.747 E26.85675
G1 X95.499 Y233.131 E27.0105
G1 X95.183 Y233.053 E27.02566
G1 X92.025 Y232.099 E27.17927
G1 X91.716 Y231.987 E27.19457
G1 X88.677 Y230.701 E27.34823
G1 X88.384 Y230.559 E27.36339
G1 X85.525 Y228.975 E27.51558
G1 X85.244 Y228.799 E27.53102
G1 X82.521 Y226.881 E27.68611
G1 X82.264 Y226.679 E27.70134
G1 X79.784 Y224.504 E27.85493
G1 X79.551 Y224.276 E27.87011
G1 X77.313 Y221.849 E28.02384
G1 X77.103 Y221.596 E28.03915
G1 X75.137 Y218.945 E28.19283
G1 X74.956 Y218.671 E28.20812
G1 X73.284 Y215.827 E28.36174
G1 X73.133 Y215.536 E28.37701
G1 X71.773 Y212.53 E28.53064
G1 X71.654 Y212.224 E28.54593
G1 X70.622 Y209.092 E28.69948
G1 X70.536 Y208.776 E28.71473
G1 X69.841 Y205.548 E28.86848
G1 X69.789 Y205.225 E28.88372
G1 X69.441 Y201.946 E29.03726
G1 X69.424 Y201.618 E29.05255
G1 X69.427 Y198.318 E29.20621
G1 X69.445 Y197.991 E29.22146
G1 X69.799 Y194.711 E29.37508
G1 X69.851 Y194.387 E29.39036
G1 X70.552 Y191.161 E29.54408
G1 X70.639 Y190.846 E29.5593
G1 X71.677 Y187.716 E29.71285
G1 X71.796 Y187.41 E29.72814
G1 X73.162 Y184.406 E29.8818
G1 X73.314 Y184.115 E29.89709
G1 X74.992 Y181.274 E30.05073
G1 X75.174 Y181.001 E30.06601
G1 X77.145 Y178.354 E30.21968
G1 X77.354 Y178.101 E30.23496
G1 X79.596 Y175.678 E30.38867
M204 S3000
M205 X10 Y10
G1 F2400 E24.38867
G0 F3000 X77.594 Y178.688
M204 S1800
M205 X8 Y8
G1 F2400 E30.38867
G1 X77.765 Y178.482 E30.40114
G1 X80.007 Y176.059 E30.55485
G1 X80.197 Y175.874 E30.5672
G1 X82.658 Y173.72 E30.71949
G1 X82.872 Y173.552 E30.73216
G1 X85.596 Y171.643 E30.88705
G1 X85.823 Y171.502 E30.89949
G1 X88.713 Y169.904 E31.05326
G1 X88.954 Y169.786 E31.06576
G1 X91.993 Y168.507 E31.21929
G1 X92.244 Y168.417 E31.2317
G1 X95.375 Y167.474 E31.38397
G1 X95.637 Y167.41 E31.39652
G1 X98.912 Y166.795 E31.55169
G1 X99.178 Y166.76 E31.56418
G1 X102.466 Y166.5 E31.71776
G1 X102.732 Y166.493 E31.73015
G1 X106 Y166.58 E31.88238
G1 X106.27 Y166.602 E31.89499
G1 X109.571 Y167.047 E32.05009
G1 X109.832 Y167.096 E32.06246
G1 X113.007 Y167.872 E32.21465
G1 X113.264 Y167.949 E32.22714
G1 X116.37 Y169.069 E32.38088
G1 X116.617 Y169.173 E32.39336
G1 X119.582 Y170.614 E32.54687
G1 X119.819 Y170.746 E32.5595
G1 X122.642 Y172.517 E32.71468
G1 X122.861 Y172.671 E32.72714
G1 X125.454 Y174.711 E32.88077
G1 X125.653 Y174.886 E32.89311
G1 X127.995 Y177.165 E33.04528
G1 X128.18 Y177.365 E33.05796
G1 X130.301 Y179.931 E33.21298
G1 X130.46 Y180.145 E33.22539
G1 X132.282 Y182.895 E33.379
G1 X132.417 Y183.125 E33.39142
G1 X133.925 Y186.027 E33.5437
G1 X134.037 Y186.273 E33.55629
G1 X135.248 Y189.378 E33.71148
G1 X135.331 Y189.631 E33.72388
G1 X136.191 Y192.783 E33.87601
G1 X136.248 Y193.048 E33.88863
G1 X136.774 Y196.336 E34.04368
G1 X136.802 Y196.6 E34.05605
G1 X136.976 Y199.865 E34.20829
G1 X136.976 Y200.135 E34.22087
G1 X136.796 Y203.459 E34.37587
G1 X136.768 Y203.723 E34.38823
G1 X136.248 Y206.954 E34.54062
G1 X136.19 Y207.22 E34.5533
G1 X135.311 Y210.429 E34.70822
G1 X135.228 Y210.681 E34.72058
G1 X134.037 Y213.727 E34.87287
G1 X133.925 Y213.973 E34.88546
G1 X132.387 Y216.926 E35.04049
G1 X132.25 Y217.157 E35.053
G1 X130.422 Y219.906 E35.20672
G1 X130.265 Y220.119 E35.21904
G1 X128.18 Y222.636 E35.37123
G1 X127.995 Y222.835 E35.38388
G1 X125.608 Y225.154 E35.53885
G1 X125.408 Y225.329 E35.55122
G1 X122.836 Y227.348 E35.70348
G1 X122.615 Y227.503 E35.71605
G1 X119.79 Y229.268 E35.87116
G1 X119.554 Y229.399 E35.88372
G1 X116.586 Y230.838 E36.03731
G1 X116.34 Y230.941 E36.04973
G1 X113.233 Y232.058 E36.20347
G1 X112.976 Y232.135 E36.21597
G1 X109.772 Y232.915 E36.36951
G1 X109.51 Y232.965 E36.38193
G1 X106.267 Y233.399 E36.53429
G1 X105.998 Y233.42 E36.54685
G1 X102.67 Y233.506 E36.70187
G1 X102.402 Y233.499 E36.71435
G1 X99.115 Y233.233 E36.86791
G1 X98.848 Y233.197 E36.88046
G1 X95.604 Y232.581 E37.03421
G1 X95.345 Y232.517 E37.04663
G1 X92.187 Y231.563 E37.20024
G1 X91.934 Y231.472 E37.21276
G1 X88.895 Y230.186 E37.36642
G1 X88.656 Y230.069 E37.37881
G1 X85.797 Y228.485 E37.53101
G1 X85.567 Y228.341 E37.54364
G1 X82.844 Y226.423 E37.69873
G1 X82.633 Y226.258 E37.7112
G1 X80.153 Y224.083 E37.8648
G1 X79.962 Y223.896 E37.87725
G1 X77.724 Y221.469 E38.03097
G1 X77.553 Y221.262 E38.04348
G1 X75.587 Y218.611 E38.19716
G1 X75.439 Y218.387 E38.20966
G1 X73.767 Y215.543 E38.36328
G1 X73.643 Y215.305 E38.37578
G1 X72.283 Y212.299 E38.52941
G1 X72.186 Y212.049 E38.54189
G1 X71.154 Y208.917 E38.69545
G1 X71.083 Y208.658 E38.70795
G1 X70.388 Y205.43 E38.8617
G1 X70.346 Y205.166 E38.87415
G1 X69.998 Y201.887 E39.02769
G1 X69.984 Y201.619 E39.04019
G1 X69.987 Y198.319 E39.19385
G1 X70.002 Y198.051 E39.20635
G1 X70.356 Y194.771 E39.35997
G1 X70.398 Y194.506 E39.37246
G1 X71.099 Y191.28 E39.52618
G1 X71.17 Y191.022 E39.53864
G1 X72.208 Y187.892 E39.69219
G1 X72.306 Y187.642 E39.7047
G1 X73.672 Y184.638 E39.85836
G1 X73.796 Y184.399 E39.8709
G1 X75.474 Y181.558 E40.02454
G1 X75.623 Y181.335 E40.03703
G1 X77.594 Y178.688 E40.1907
M204 S3000
M205 X10 Y10
G1 F2400 E34.1907
G0 F3000 X75.956 Y181.843
M204 S1800
M205 X8 Y8
G1 F2400 E40.1907
G1 X76.072 Y181.669 E40.20044
G1 X78.043 Y179.022 E40.35411
G1 X78.176 Y178.862 E40.3638
G1 X80.418 Y176.439 E40.51751
G1 X80.566 Y176.295 E40.52713
G1 X83.027 Y174.141 E40.67941
G1 X83.193 Y174.011 E40.68923
G1 X85.917 Y172.102 E40.84412
G1 X86.094 Y171.992 E40.85382
G1 X88.984 Y170.394 E41.0076
G1 X89.172 Y170.302 E41.01734
G1 X92.211 Y169.023 E41.17087
G1 X92.406 Y168.953 E41.18052
G1 X95.537 Y168.01 E41.33278
G1 X95.74 Y167.961 E41.34251
G1 X99.015 Y167.346 E41.49767
