;FLAVOR:Marlin
;TIME:6624
;Filament used: 6.20552m
;Layer height: 0.2
;MINX:60.653
;MINY:164.813
;MINZ:0.2
;MAXX:131.003
;MAXY:235.186
;MAXZ:11
;Generated with Cura_SteamEngine 5.0.0
M140 S55
M105
M190 S55
M104 S195
M105
M109 S195
M82 ;absolute extrusion mode
M107 ;Start with the fan off
G21 ;Set units to millimeters
G91 ;Change to relative positioning mode for retract filament and nozzle lifting
G1 F200 E-3 ;Retract 3mm filament for a clean start
G92 E0 ;Zero the extruded length
G1 F1000 Z5 ;Lift the nozzle 5mm before homing axes
G90 ;Absolute positioning
M82 ;Set extruder to absolute mode too
G28 X0 Y0 ;First move X/Y to min endstops
G28 Z0 ;Then move Z to min endstops
G1 F1000 Z15 ;After homing lift the nozzle 15mm before start printing

G92 E0
G92 E0
G1 F2400 E-6
;LAYER_COUNT:55
;LAYER:0
M106 S255
M204 S3000
M205 X10 Y10
G1 F600 Z0.275
G0 F3000 X80.651 Y168.238 Z0.275
G1 F600 Z0.2
G0 F3000 X76.981 Y170.267
M204 S1800
M205 X8 Y8
;TYPE:SKIRT
G1 F2400 E0
G1 X77.358 Y170.032 E0.02069
G1 X80.247 Y168.434 E0.17442
G1 X80.651 Y168.238 E0.19533
G1 X83.69 Y166.959 E0.34886
G1 X84.108 Y166.808 E0.36955
G1 X87.24 Y165.865 E0.52186
G1 X87.676 Y165.759 E0.54275
G1 X90.95 Y165.144 E0.69787
G1 X91.394 Y165.085 E0.71872
G1 X94.682 Y164.825 E0.87231
G1 X95.125 Y164.813 E0.89294
G1 X98.393 Y164.9 E1.04517
G1 X98.842 Y164.937 E1.06615
G1 X102.144 Y165.382 E1.22129
G1 X102.58 Y165.464 E1.24195
G1 X105.754 Y166.24 E1.3941
G1 X106.182 Y166.369 E1.41491
G1 X109.288 Y167.489 E1.56865
G1 X109.698 Y167.662 E1.58938
G1 X112.664 Y169.103 E1.74292
G1 X113.062 Y169.324 E1.76412
G1 X115.884 Y171.095 E1.91926
G1 X116.247 Y171.351 E1.93994
G1 X118.841 Y173.391 E2.09361
G1 X119.174 Y173.682 E2.1142
G1 X121.516 Y175.961 E2.26636
G1 X121.824 Y176.295 E2.28752
G1 X123.945 Y178.861 E2.44254
G1 X124.209 Y179.217 E2.46317
G1 X126.031 Y181.967 E2.61678
G1 X126.257 Y182.351 E2.63753
G1 X127.764 Y185.253 E2.78979
G1 X127.95 Y185.663 E2.81075
G1 X129.161 Y188.768 E2.96594
G1 X129.3 Y189.188 E2.98654
G1 X130.16 Y192.34 E3.13868
G1 X130.255 Y192.783 E3.15978
G1 X130.781 Y196.071 E3.31483
G1 X130.828 Y196.509 E3.33534
G1 X131.003 Y199.774 E3.48759
G1 X131.003 Y200.227 E3.50868
G1 X130.822 Y203.551 E3.66369
G1 X130.775 Y203.99 E3.68425
G1 X130.255 Y207.221 E3.83663
G1 X130.159 Y207.664 E3.85774
G1 X129.28 Y210.873 E4.01267
G1 X129.141 Y211.292 E4.03323
G1 X127.95 Y214.338 E4.18552
G1 X127.764 Y214.748 E4.20648
G1 X126.227 Y217.701 E4.3615
G1 X125.998 Y218.088 E4.38243
G1 X124.17 Y220.837 E4.53616
G1 X123.907 Y221.19 E4.55665
G1 X121.822 Y223.707 E4.70885
G1 X121.515 Y224.04 E4.72994
G1 X119.128 Y226.359 E4.8849
G1 X118.794 Y226.651 E4.90556
G1 X116.221 Y228.67 E5.05785
G1 X115.854 Y228.928 E5.07874
G1 X113.03 Y230.693 E5.23381
G1 X112.636 Y230.91 E5.25475
G1 X109.667 Y232.349 E5.40838
G1 X109.256 Y232.522 E5.42915
G1 X106.149 Y233.639 E5.58289
G1 X105.722 Y233.768 E5.60366
G1 X102.519 Y234.548 E5.75716
G1 X102.082 Y234.63 E5.77787
G1 X98.838 Y235.064 E5.93027
G1 X98.389 Y235.1 E5.95124
G1 X95.061 Y235.186 E6.10626
G1 X94.614 Y235.173 E6.12708
G1 X91.327 Y234.907 E6.28064
G1 X90.882 Y234.847 E6.30155
G1 X87.639 Y234.231 E6.45525
G1 X87.209 Y234.126 E6.47586
G1 X84.05 Y233.172 E6.62952
G1 X83.627 Y233.019 E6.65047
G1 X80.588 Y231.733 E6.80412
G1 X80.189 Y231.539 E6.82478
G1 X77.331 Y229.955 E6.97694
G1 X76.949 Y229.715 E6.99794
G1 X74.225 Y227.797 E7.15307
G1 X73.874 Y227.521 E7.17386
G1 X71.394 Y225.346 E7.32746
G1 X71.075 Y225.035 E7.34821
G1 X68.838 Y222.608 E7.5019
G1 X68.552 Y222.263 E7.52277
G1 X66.586 Y219.612 E7.67645
G1 X66.339 Y219.239 E7.69728
G1 X64.667 Y216.395 E7.8509
G1 X64.462 Y215.998 E7.87171
G1 X63.101 Y212.992 E8.02536
G1 X62.938 Y212.573 E8.04629
G1 X61.907 Y209.441 E8.19983
G1 X61.79 Y209.013 E8.22049
G1 X61.094 Y205.785 E8.37425
G1 X61.023 Y205.342 E8.39514
G1 X60.676 Y202.063 E8.54868
G1 X60.653 Y201.617 E8.56948
G1 X60.656 Y198.317 E8.72314
G1 X60.68 Y197.872 E8.74389
G1 X61.033 Y194.592 E8.8975
G1 X61.105 Y194.148 E8.91845
G1 X61.807 Y190.922 E9.07218
G1 X61.924 Y190.494 E9.09284
G1 X62.961 Y187.364 E9.24637
G1 X63.125 Y186.945 E9.26733
G1 X64.492 Y183.941 E9.42101
G1 X64.699 Y183.545 E9.44181
G1 X66.377 Y180.704 E9.59545
G1 X66.624 Y180.332 E9.61625
G1 X68.595 Y177.685 E9.76992
G1 X68.881 Y177.341 E9.79075
G1 X71.122 Y174.918 E9.94443
G1 X71.439 Y174.61 E9.96501
G1 X73.9 Y172.456 E10.1173
G1 X74.256 Y172.176 E10.13839
G1 X76.981 Y170.267 E10.29332
M204 S3000
M205 X10 Y10
G1 F2400 E4.29332
G0 F3000 X74.269 Y172.877
M204 S1800
M205 X8 Y8
G1 F2400 E10.29332
G1 X74.577 Y172.635 E10.31156
G1 X77.302 Y170.726 E10.46648
G1 X77.629 Y170.522 E10.48443
G1 X80.518 Y168.924 E10.63816
G1 X80.868 Y168.754 E10.65628
G1 X83.907 Y167.475 E10.80981
G1 X84.27 Y167.345 E10.82776
G1 X87.402 Y166.402 E10.98007
G1 X87.779 Y166.31 E10.99814
G1 X91.053 Y165.695 E11.15326
G1 X91.438 Y165.643 E11.17135
G1 X94.726 Y165.383 E11.32493
G1 X95.11 Y165.373 E11.34281
G1 X98.378 Y165.46 E11.49504
G1 X98.767 Y165.492 E11.51322
G1 X102.069 Y165.937 E11.66836
G1 X102.447 Y166.008 E11.68627
G1 X105.621 Y166.784 E11.83842
G1 X105.992 Y166.896 E11.85646
G1 X109.098 Y168.016 E12.01021
G1 X109.454 Y168.166 E12.02819
G1 X112.42 Y169.607 E12.18174
G1 X112.764 Y169.798 E12.20006
G1 X115.586 Y171.569 E12.3552
G1 X115.901 Y171.791 E12.37314
G1 X118.495 Y173.831 E12.52681
G1 X118.784 Y174.083 E12.54466
G1 X121.126 Y176.362 E12.69683
G1 X121.393 Y176.652 E12.71518
G1 X123.514 Y179.218 E12.8702
G1 X123.742 Y179.527 E12.88808
G1 X125.564 Y182.277 E13.04169
G1 X125.76 Y182.609 E13.05964
G1 X127.267 Y185.511 E13.2119
G1 X127.428 Y185.866 E13.23005
G1 X128.639 Y188.971 E13.38524
G1 X128.76 Y189.336 E13.40315
G1 X129.62 Y192.488 E13.55528
G1 X129.702 Y192.871 E13.57352
G1 X130.228 Y196.159 E13.72857
G1 X130.269 Y196.539 E13.74637
G1 X130.444 Y199.804 E13.89862
G1 X130.444 Y200.197 E13.91692
G1 X130.263 Y203.521 E14.07193
G1 X130.222 Y203.901 E14.08973
G1 X129.702 Y207.132 E14.24211
G1 X129.619 Y207.516 E14.2604
G1 X128.74 Y210.725 E14.41533
G1 X128.619 Y211.089 E14.43319
G1 X127.428 Y214.135 E14.58549
G1 X127.267 Y214.49 E14.60364
G1 X125.73 Y217.443 E14.75865
G1 X125.532 Y217.778 E14.77677
G1 X123.704 Y220.527 E14.93049
G1 X123.476 Y220.833 E14.94826
G1 X121.391 Y223.35 E15.10045
G1 X121.124 Y223.639 E15.11877
G1 X118.737 Y225.958 E15.27374
G1 X118.448 Y226.211 E15.29162
G1 X115.875 Y228.23 E15.44392
G1 X115.557 Y228.453 E15.462
G1 X112.733 Y230.218 E15.61707
G1 X112.392 Y230.407 E15.63522
G1 X109.423 Y231.846 E15.78885
G1 X109.066 Y231.995 E15.80687
G1 X105.959 Y233.112 E15.96061
G1 X105.589 Y233.224 E15.97861
G1 X102.386 Y234.004 E16.13211
G1 X102.008 Y234.075 E16.15002
G1 X98.764 Y234.509 E16.30242
G1 X98.375 Y234.54 E16.32059
G1 X95.047 Y234.626 E16.47561
G1 X94.659 Y234.615 E16.49368
G1 X91.372 Y234.349 E16.64724
G1 X90.987 Y234.297 E16.66533
G1 X87.744 Y233.681 E16.81904
G1 X87.371 Y233.59 E16.83692
G1 X84.212 Y232.636 E16.99057
G1 X83.845 Y232.503 E17.00875
G1 X80.806 Y231.217 E17.16241
G1 X80.46 Y231.049 E17.18032
G1 X77.602 Y229.465 E17.33247
G1 X77.271 Y229.257 E17.35067
G1 X74.547 Y227.339 E17.5058
G1 X74.243 Y227.1 E17.52381
G1 X71.763 Y224.925 E17.67741
G1 X71.486 Y224.655 E17.69542
G1 X69.249 Y222.228 E17.84911
G1 X69.002 Y221.929 E17.86717
G1 X67.036 Y219.278 E18.02086
G1 X66.822 Y218.955 E18.0389
G1 X65.15 Y216.111 E18.19252
G1 X64.972 Y215.767 E18.21055
G1 X63.611 Y212.761 E18.3642
G1 X63.47 Y212.398 E18.38233
G1 X62.439 Y209.266 E18.53587
G1 X62.338 Y208.895 E18.55378
G1 X61.642 Y205.667 E18.70754
G1 X61.58 Y205.283 E18.72565
G1 X61.233 Y202.004 E18.87919
G1 X61.213 Y201.618 E18.89719
G1 X61.216 Y198.318 E19.05085
G1 X61.237 Y197.932 E19.06885
G1 X61.59 Y194.652 E19.22246
G1 X61.652 Y194.267 E19.24062
G1 X62.354 Y191.041 E19.39435
G1 X62.456 Y190.67 E19.41227
G1 X63.493 Y187.54 E19.5658
G1 X63.635 Y187.177 E19.58395
G1 X65.002 Y184.173 E19.73763
G1 X65.181 Y183.83 E19.75565
G1 X66.859 Y180.989 E19.90929
G1 X67.073 Y180.666 E19.92733
G1 X69.044 Y178.019 E20.081
G1 X69.292 Y177.721 E20.09906
G1 X71.533 Y175.298 E20.25274
G1 X71.808 Y175.031 E20.27059
G1 X74.269 Y172.877 E20.42288
M204 S3000
M205 X10 Y10
G1 F2400 E14.42288
G0 F3000 X71.944 Y175.679
M204 S1800
M205 X8 Y8
G1 F2400 E20.42288
G1 X72.176 Y175.452 E20.43799
G1 X74.637 Y173.298 E20.59028
G1 X74.899 Y173.093 E20.60577
G1 X77.624 Y171.184 E20.7607
G1 X77.9 Y171.012 E20.77584
G1 X80.789 Y169.414 E20.92957
G1 X81.085 Y169.27 E20.9449
G1 X84.124 Y167.991 E21.09843
G1 X84.431 Y167.881 E21.11361
G1 X87.563 Y166.938 E21.26592
G1 X87.882 Y166.86 E21.28121
G1 X91.156 Y166.245 E21.43633
G1 X91.482 Y166.202 E21.45164
G1 X94.77 Y165.942 E21.60522
G1 X95.095 Y165.933 E21.62036
G1 X98.363 Y166.02 E21.77259
G1 X98.692 Y166.047 E21.78796
G1 X101.994 Y166.492 E21.9431
G1 X102.314 Y166.552 E21.95826
G1 X105.488 Y167.328 E22.11041
G1 X105.802 Y167.423 E22.12569
G1 X108.908 Y168.543 E22.27943
G1 X109.209 Y168.67 E22.29464
G1 X112.175 Y170.111 E22.44819
G1 X112.466 Y170.272 E22.46367
G1 X115.288 Y172.043 E22.61881
G1 X115.555 Y172.231 E22.63402
G1 X118.149 Y174.271 E22.78768
G1 X118.393 Y174.485 E22.80279
G1 X120.735 Y176.764 E22.95496
G1 X120.961 Y177.009 E22.97048
G1 X123.082 Y179.575 E23.1255
G1 X123.276 Y179.836 E23.14064
G1 X125.098 Y182.586 E23.29425
G1 X125.263 Y182.868 E23.30946
G1 X126.77 Y185.77 E23.46172
G1 X126.906 Y186.07 E23.47706
G1 X128.117 Y189.175 E23.63225
G1 X128.219 Y189.483 E23.64736
G1 X129.079 Y192.635 E23.79949
G1 X129.149 Y192.959 E23.81493
G1 X129.675 Y196.247 E23.96998
G1 X129.71 Y196.569 E23.98506
G1 X129.885 Y199.834 E24.13731
G1 X129.884 Y200.166 E24.15277
G1 X129.703 Y203.49 E24.30778
G1 X129.669 Y203.812 E24.32285
G1 X129.149 Y207.043 E24.47524
G1 X129.079 Y207.368 E24.49072
G1 X128.2 Y210.577 E24.64565
G1 X128.098 Y210.885 E24.66076
G1 X126.907 Y213.931 E24.81305
G1 X126.77 Y214.231 E24.8284
G1 X125.233 Y217.184 E24.98342
G1 X125.066 Y217.467 E24.99872
G1 X123.238 Y220.216 E25.15244
G1 X123.045 Y220.476 E25.16752
G1 X120.96 Y222.993 E25.31971
G1 X120.734 Y223.237 E25.3352
G1 X118.347 Y225.556 E25.49016
G1 X118.102 Y225.77 E25.50531
G1 X115.529 Y227.789 E25.6576
G1 X115.26 Y227.978 E25.67291
G1 X112.436 Y229.743 E25.82798
G1 X112.147 Y229.903 E25.84336
G1 X109.178 Y231.342 E25.99699
G1 X108.877 Y231.468 E26.01219
G1 X105.77 Y232.585 E26.16593
G1 X105.457 Y232.68 E26.18116
G1 X102.254 Y233.46 E26.33466
G1 X101.933 Y233.52 E26.34987
G1 X98.689 Y233.954 E26.50227
G1 X98.361 Y233.98 E26.51759
G1 X95.033 Y234.066 E26.67261
G1 X94.705 Y234.057 E26.68788
G1 X91.418 Y233.791 E26.84144
G1 X91.091 Y233.747 E26.8568
G1 X87.848 Y233.131 E27.01051
G1 X87.533 Y233.053 E27.02562
G1 X84.374 Y232.099 E27.17928
G1 X84.064 Y231.987 E27.19463
G1 X81.025 Y230.701 E27.34829
G1 X80.732 Y230.559 E27.36345
G1 X77.874 Y228.975 E27.5156
G1 X77.594 Y228.799 E27.531
G1 X74.87 Y226.881 E27.68613
G1 X74.612 Y226.679 E27.70139
G1 X72.132 Y224.504 E27.85498
G1 X71.898 Y224.275 E27.87023
G1 X69.661 Y221.848 E28.02392
G1 X69.452 Y221.596 E28.03917
G1 X67.486 Y218.945 E28.19285
G1 X67.305 Y218.671 E28.20814
G1 X65.633 Y215.827 E28.36176
G1 X65.482 Y215.536 E28.37703
G1 X64.121 Y212.53 E28.53068
G1 X64.001 Y212.223 E28.54603
G1 X62.97 Y209.091 E28.69956
G1 X62.885 Y208.777 E28.71471
G1 X62.189 Y205.549 E28.86847
G1 X62.137 Y205.224 E28.8838
G1 X61.79 Y201.945 E29.03734
G1 X61.773 Y201.618 E29.05258
G1 X61.776 Y198.318 E29.20624
G1 X61.794 Y197.991 E29.22149
G1 X62.147 Y194.711 E29.37511
G1 X62.199 Y194.386 E29.39043
G1 X62.901 Y191.16 E29.54416
G1 X62.987 Y190.846 E29.55932
G1 X64.024 Y187.716 E29.71286
G1 X64.145 Y187.409 E29.72823
G1 X65.512 Y184.405 E29.88191
G1 X65.663 Y184.115 E29.89713
G1 X67.341 Y181.274 E30.05077
G1 X67.523 Y181.001 E30.06605
G1 X69.494 Y178.354 E30.21972
G1 X69.703 Y178.102 E30.23497
G1 X71.944 Y175.679 E30.38865
M204 S3000
M205 X10 Y10
G1 F2400 E24.38865
G0 F3000 X69.943 Y178.688
M204 S1800
M205 X8 Y8
G1 F2400 E30.38865
G1 X70.114 Y178.482 E30.40112
G1 X72.355 Y176.059 E30.5548
G1 X72.545 Y175.874 E30.56715
G1 X75.006 Y173.72 E30.71944
G1 X75.22 Y173.552 E30.7321
G1 X77.945 Y171.643 E30.88703
G1 X78.171 Y171.502 E30.89943
G1 X81.06 Y169.904 E31.05317
G1 X81.302 Y169.786 E31.0657
G1 X84.341 Y168.507 E31.21923
G1 X84.592 Y168.417 E31.23165
G1 X87.724 Y167.474 E31.38396
G1 X87.986 Y167.41 E31.39651
G1 X91.26 Y166.795 E31.55163
G1 X91.526 Y166.76 E31.56412
G1 X94.814 Y166.5 E31.71771
G1 X95.08 Y166.493 E31.7301
G1 X98.348 Y166.58 E31.88232
G1 X98.618 Y166.602 E31.89494
G1 X101.92 Y167.047 E32.05008
G1 X102.181 Y167.096 E32.06245
G1 X105.355 Y167.872 E32.21459
G1 X105.612 Y167.949 E32.22709
G1 X108.718 Y169.069 E32.38083
G1 X108.964 Y169.173 E32.39327
G1 X111.93 Y170.614 E32.54681
G1 X112.169 Y170.747 E32.55955
G1 X114.991 Y172.518 E32.71469
G1 X115.209 Y172.671 E32.72709
G1 X117.803 Y174.711 E32.88075
G1 X118.002 Y174.886 E32.89309
G1 X120.344 Y177.165 E33.04526
G1 X120.529 Y177.365 E33.05794
G1 X122.65 Y179.931 E33.21296
G1 X122.809 Y180.145 E33.22537
G1 X124.631 Y182.895 E33.37898
G1 X124.766 Y183.126 E33.39144
G1 X126.273 Y186.028 E33.5437
G1 X126.385 Y186.273 E33.55625
G1 X127.596 Y189.378 E33.71144
G1 X127.679 Y189.631 E33.72383
G1 X128.539 Y192.783 E33.87597
G1 X128.596 Y193.048 E33.88859
G1 X129.122 Y196.336 E34.04364
G1 X129.15 Y196.599 E34.05596
G1 X129.325 Y199.864 E34.20821
G1 X129.325 Y200.136 E34.22087
G1 X129.144 Y203.46 E34.37588
G1 X129.116 Y203.723 E34.3882
G1 X128.596 Y206.954 E34.54058
G1 X128.538 Y207.22 E34.55326
G1 X127.659 Y210.429 E34.70819
G1 X127.576 Y210.681 E34.72054
G1 X126.385 Y213.727 E34.87283
G1 X126.273 Y213.972 E34.88538
G1 X124.736 Y216.925 E35.04039
G1 X124.599 Y217.157 E35.05294
G1 X122.771 Y219.906 E35.20666
G1 X122.614 Y220.119 E35.21898
G1 X120.529 Y222.636 E35.37117
G1 X120.344 Y222.835 E35.38382
G1 X117.957 Y225.154 E35.53879
G1 X117.757 Y225.33 E35.55119
G1 X115.184 Y227.349 E35.70349
G1 X114.964 Y227.503 E35.71599
G1 X112.14 Y229.268 E35.87106
G1 X111.903 Y229.399 E35.88367
G1 X108.934 Y230.838 E36.0373
G1 X108.688 Y230.941 E36.04972
G1 X105.581 Y232.058 E36.20346
G1 X105.324 Y232.135 E36.21595
G1 X102.121 Y232.915 E36.36945
G1 X101.859 Y232.965 E36.38187
G1 X98.615 Y233.399 E36.53427
G1 X98.346 Y233.42 E36.54684
G1 X95.018 Y233.506 E36.70185
G1 X94.75 Y233.499 E36.71434
G1 X91.463 Y233.233 E36.8679
G1 X91.196 Y233.197 E36.88044
G1 X87.953 Y232.581 E37.03415
G1 X87.694 Y232.517 E37.04657
G1 X84.535 Y231.563 E37.20023
G1 X84.282 Y231.472 E37.21275
G1 X81.243 Y230.186 E37.36641
G1 X81.003 Y230.069 E37.37884
G1 X78.145 Y228.485 E37.53099
G1 X77.916 Y228.341 E37.54359
G1 X75.192 Y226.423 E37.69872
G1 X74.981 Y226.258 E37.71119
G1 X72.501 Y224.083 E37.86479
G1 X72.31 Y223.896 E37.87723
G1 X70.073 Y221.469 E38.03093
G1 X69.902 Y221.262 E38.04343
G1 X67.936 Y218.611 E38.19711
G1 X67.788 Y218.387 E38.20961
G1 X66.116 Y215.543 E38.36323
G1 X65.992 Y215.305 E38.37573
G1 X64.631 Y212.299 E38.52938
G1 X64.533 Y212.048 E38.54193
G1 X63.502 Y208.916 E38.69546
G1 X63.433 Y208.659 E38.70785
G1 X62.737 Y205.431 E38.86162
G1 X62.694 Y205.165 E38.87416
G1 X62.347 Y201.886 E39.0277
G1 X62.333 Y201.619 E39.04015
G1 X62.336 Y198.319 E39.19381
G1 X62.35 Y198.051 E39.20631
G1 X62.703 Y194.771 E39.35992
G1 X62.747 Y194.505 E39.37248
G1 X63.449 Y191.279 E39.52621
G1 X63.519 Y191.022 E39.53861
G1 X64.556 Y187.892 E39.69215
G1 X64.654 Y187.641 E39.70469
G1 X66.021 Y184.637 E39.85837
G1 X66.145 Y184.399 E39.87087
G1 X67.823 Y181.558 E40.02451
G1 X67.972 Y181.335 E40.037
G1 X69.943 Y178.688 E40.19067
M204 S3000
M205 X10 Y10
G1 F2400 E34.19067
G0 F3000 X68.305 Y181.843
M204 S1800
M205 X8 Y8
G1 F2400 E40.19067
G1 X68.421 Y181.669 E40.20041
G1 X70.392 Y179.022 E40.35408
G1 X70.525 Y178.862 E40.36377
G1 X72.766 Y176.439 E40.51745
G1 X72.914 Y176.295 E40.52707
G1 X75.375 Y174.141 E40.67936
G1 X75.541 Y174.011 E40.68917
G1 X78.266 Y172.102 E40.8441
G1 X78.442 Y171.992 E40.85376
G1 X81.331 Y170.394 E41.0075
G1 X81.52 Y170.302 E41.01728
G1 X84.559 Y169.023 E41.17081
G1 X84.754 Y168.953 E41.18046
G1 X87.886 Y168.01 E41.33277
G1 X88.089 Y167.961 E41.34249
G1 X91.363 Y167.346 E41.49761
