;FLAVOR:Marlin
;TIME:5234
;Filament used: 4.19494m
;Layer height: 0.2
;MINX:64.225
;MINY:164.806
;MINZ:0.2
;MAXX:134.613
;MAXY:235.194
;MAXZ:6
;Generated with Cura_SteamEngine 5.0.0
M140 S55
M105
M190 S55
M104 S195
M105
M109 S195
M82 ;absolute extrusion mode
M107 ;Start with the fan off
G21 ;Set units to millimeters
G91 ;Change to relative positioning mode for retract filament and nozzle lifting
G1 F200 E-3 ;Retract 3mm filament for a clean start
G92 E0 ;Zero the extruded length
G1 F1000 Z5 ;Lift the nozzle 5mm before homing axes
G90 ;Absolute positioning
M82 ;Set extruder to absolute mode too
G28 X0 Y0 ;First move X/Y to min endstops
G28 Z0 ;Then move Z to min endstops
G1 F1000 Z15 ;After homing lift the nozzle 15mm before start printing

G92 E0
G92 E0
G1 F2400 E-6
;LAYER_COUNT:30
;LAYER:0
M106 S255
M204 S3000
M205 X10 Y10
G1 F600 Z0.275
G0 F3000 X84.902 Y167.939 Z0.275
G1 F600 Z0.2
G0 F3000 X81.63 Y169.632
M204 S1800
M205 X8 Y8
;TYPE:SKIRT
G1 F2400 E0
G1 X82.011 Y169.412 E0.02049
G1 X84.902 Y167.939 E0.17157
G1 X85.31 Y167.757 E0.19237
G1 X88.394 Y166.579 E0.3461
G1 X88.805 Y166.446 E0.36621
G1 X91.885 Y165.62 E0.5147
G1 X92.324 Y165.527 E0.53559
G1 X95.585 Y165.017 E0.68928
G1 X96.014 Y164.973 E0.70936
G1 X99.199 Y164.806 E0.85787
G1 X99.646 Y164.806 E0.87869
G1 X102.939 Y164.984 E1.03225
G1 X103.369 Y165.03 E1.05239
G1 X106.522 Y165.529 E1.20103
G1 X106.953 Y165.62 E1.22154
G1 X110.086 Y166.46 E1.37258
G1 X110.504 Y166.596 E1.39305
G1 X113.535 Y167.76 E1.54423
G1 X113.936 Y167.939 E1.56468
G1 X116.825 Y169.411 E1.71566
G1 X117.205 Y169.63 E1.73608
G1 X119.927 Y171.397 E1.8872
G1 X120.284 Y171.656 E1.90773
G1 X122.806 Y173.699 E2.05886
G1 X123.132 Y173.993 E2.07931
G1 X125.426 Y176.287 E2.23037
G1 X125.72 Y176.614 E2.25085
G1 X127.763 Y179.137 E2.40201
G1 X128.021 Y179.492 E2.42245
G1 X129.787 Y182.211 E2.57342
G1 X130.007 Y182.592 E2.5939
G1 X131.48 Y185.483 E2.74499
G1 X131.659 Y185.884 E2.76543
G1 X132.823 Y188.915 E2.91662
G1 X132.959 Y189.333 E2.93709
G1 X133.799 Y192.466 E3.08813
G1 X133.891 Y192.905 E3.10901
G1 X134.401 Y196.164 E3.26261
G1 X134.446 Y196.593 E3.2827
G1 X134.613 Y199.779 E3.43125
G1 X134.613 Y200.226 E3.45207
G1 X134.435 Y203.519 E3.60563
G1 X134.389 Y203.948 E3.62572
G1 X133.89 Y207.102 E3.77441
G1 X133.799 Y207.534 E3.79497
G1 X132.959 Y210.667 E3.946
G1 X132.823 Y211.084 E3.96643
G1 X131.66 Y214.113 E4.11751
G1 X131.481 Y214.515 E4.138
G1 X130.008 Y217.406 E4.28908
G1 X129.788 Y217.786 E4.30953
G1 X128.021 Y220.507 E4.4606
G1 X127.764 Y220.862 E4.48101
G1 X125.722 Y223.385 E4.63215
G1 X125.426 Y223.714 E4.65276
G1 X123.131 Y226.007 E4.80382
G1 X122.806 Y226.299 E4.82416
G1 X120.284 Y228.343 E4.97533
G1 X119.927 Y228.603 E4.99589
G1 X117.207 Y230.369 E5.1469
G1 X116.827 Y230.588 E5.16732
G1 X113.936 Y232.061 E5.3184
G1 X113.535 Y232.24 E5.33885
G1 X110.504 Y233.404 E5.49004
G1 X110.086 Y233.54 E5.51051
G1 X106.953 Y234.38 E5.66154
G1 X106.514 Y234.473 E5.68244
G1 X103.254 Y234.983 E5.83609
G1 X102.825 Y235.027 E5.85617
G1 X99.639 Y235.194 E6.00472
G1 X99.192 Y235.194 E6.02554
G1 X95.9 Y235.016 E6.17905
G1 X95.471 Y234.97 E6.19914
G1 X92.317 Y234.471 E6.34783
G1 X91.885 Y234.38 E6.36839
G1 X88.753 Y233.54 E6.51938
G1 X88.336 Y233.404 E6.53981
G1 X85.304 Y232.24 E6.69104
G1 X84.902 Y232.061 E6.71153
G1 X82.011 Y230.588 E6.86261
G1 X81.63 Y230.368 E6.8831
G1 X78.911 Y228.602 E7.03406
G1 X78.556 Y228.344 E7.0545
G1 X76.033 Y226.301 E7.20567
G1 X75.706 Y226.006 E7.22617
G1 X73.413 Y223.712 E7.37721
G1 X73.119 Y223.386 E7.39765
G1 X71.076 Y220.863 E7.54881
G1 X70.818 Y220.508 E7.56925
G1 X69.05 Y217.787 E7.72035
G1 X68.83 Y217.406 E7.74083
G1 X67.357 Y214.515 E7.89192
G1 X67.178 Y214.113 E7.91241
G1 X66.015 Y211.084 E8.06349
G1 X65.879 Y210.665 E8.084
G1 X65.04 Y207.532 E8.23503
G1 X64.948 Y207.096 E8.25578
G1 X64.437 Y203.835 E8.40948
G1 X64.392 Y203.405 E8.42961
G1 X64.225 Y200.221 E8.57807
G1 X64.225 Y199.774 E8.59889
G1 X64.403 Y196.481 E8.75245
G1 X64.449 Y196.05 E8.77263
G1 X64.949 Y192.896 E8.92133
G1 X65.04 Y192.468 E8.9417
G1 X65.879 Y189.335 E9.09273
G1 X66.015 Y188.916 E9.11324
G1 X67.178 Y185.887 E9.26432
G1 X67.357 Y185.485 E9.28481
G1 X68.83 Y182.594 E9.4359
G1 X69.05 Y182.213 E9.45638
G1 X70.818 Y179.492 E9.60748
G1 X71.075 Y179.138 E9.62785
G1 X73.117 Y176.615 E9.77899
G1 X73.413 Y176.287 E9.79956
G1 X75.707 Y173.994 E9.95059
G1 X76.032 Y173.701 E9.97097
G1 X78.555 Y171.657 E10.12216
G1 X78.911 Y171.398 E10.14266
G1 X81.63 Y169.632 E10.29363
M204 S3000
M205 X10 Y10
G1 F2400 E4.29363
G0 F3000 X78.908 Y172.092
M204 S1800
M205 X8 Y8
G1 F2400 E10.29363
G1 X79.216 Y171.867 E10.3114
G1 X81.935 Y170.101 E10.46236
G1 X82.266 Y169.911 E10.48014
G1 X85.157 Y168.438 E10.63122
G1 X85.51 Y168.281 E10.64921
G1 X88.594 Y167.103 E10.80293
G1 X88.95 Y166.987 E10.82037
G1 X92.03 Y166.161 E10.96885
G1 X92.411 Y166.081 E10.98698
G1 X95.672 Y165.571 E11.14067
G1 X96.043 Y165.532 E11.15804
G1 X99.228 Y165.365 E11.30655
G1 X99.615 Y165.365 E11.32457
G1 X102.908 Y165.543 E11.47813
G1 X103.281 Y165.583 E11.4956
G1 X106.434 Y166.082 E11.64425
G1 X106.808 Y166.161 E11.66204
G1 X109.941 Y167.001 E11.81308
G1 X110.303 Y167.119 E11.83081
G1 X113.334 Y168.283 E11.982
G1 X113.682 Y168.438 E11.99974
G1 X116.571 Y169.91 E12.15072
G1 X116.9 Y170.1 E12.16841
G1 X119.622 Y171.867 E12.31952
G1 X119.931 Y172.092 E12.33732
G1 X122.453 Y174.135 E12.48845
G1 X122.736 Y174.389 E12.50616
G1 X125.03 Y176.683 E12.65722
G1 X125.285 Y176.966 E12.67496
G1 X127.328 Y179.489 E12.82613
G1 X127.552 Y179.797 E12.84386
G1 X129.318 Y182.516 E12.99483
G1 X129.508 Y182.847 E13.0126
G1 X130.981 Y185.738 E13.16368
G1 X131.136 Y186.085 E13.18138
G1 X132.3 Y189.116 E13.33257
G1 X132.418 Y189.478 E13.35029
G1 X133.258 Y192.611 E13.50133
G1 X133.338 Y192.991 E13.51942
G1 X133.848 Y196.25 E13.67301
G1 X133.887 Y196.622 E13.69043
G1 X134.054 Y199.808 E13.83899
G1 X134.054 Y200.195 E13.85701
G1 X133.876 Y203.488 E14.01057
G1 X133.836 Y203.861 E14.02804
G1 X133.337 Y207.015 E14.17673
G1 X133.258 Y207.389 E14.19453
G1 X132.418 Y210.522 E14.34556
G1 X132.3 Y210.884 E14.36329
G1 X131.137 Y213.913 E14.51438
G1 X130.982 Y214.26 E14.53207
G1 X129.509 Y217.151 E14.68316
G1 X129.319 Y217.481 E14.70089
G1 X127.552 Y220.202 E14.85196
G1 X127.328 Y220.51 E14.86969
G1 X125.286 Y223.033 E15.02083
G1 X125.03 Y223.318 E15.03867
G1 X122.735 Y225.611 E15.18973
G1 X122.454 Y225.864 E15.20734
G1 X119.932 Y227.908 E15.3585
G1 X119.622 Y228.133 E15.37634
G1 X116.902 Y229.899 E15.52735
G1 X116.572 Y230.089 E15.54508
G1 X113.681 Y231.562 E15.69616
G1 X113.334 Y231.717 E15.71386
G1 X110.303 Y232.881 E15.86504
G1 X109.941 Y232.999 E15.88277
G1 X106.808 Y233.839 E16.03381
G1 X106.428 Y233.919 E16.05189
G1 X103.168 Y234.429 E16.20554
G1 X102.796 Y234.468 E16.22296
G1 X99.61 Y234.635 E16.37151
G1 X99.222 Y234.635 E16.38958
G1 X95.93 Y234.457 E16.54309
G1 X95.558 Y234.417 E16.56051
G1 X92.404 Y233.918 E16.7092
G1 X92.03 Y233.839 E16.727
G1 X88.898 Y232.999 E16.878
G1 X88.536 Y232.881 E16.89573
G1 X85.504 Y231.717 E17.04695
G1 X85.157 Y231.562 E17.06465
G1 X82.266 Y230.089 E17.21573
G1 X81.935 Y229.899 E17.23351
G1 X79.216 Y228.133 E17.38448
G1 X78.908 Y227.909 E17.40221
G1 X76.385 Y225.866 E17.55338
G1 X76.102 Y225.61 E17.57115
G1 X73.809 Y223.316 E17.72218
G1 X73.554 Y223.034 E17.73988
G1 X71.511 Y220.511 E17.89105
G1 X71.288 Y220.203 E17.90875
G1 X69.52 Y217.482 E18.05985
G1 X69.329 Y217.151 E18.07765
G1 X67.856 Y214.26 E18.22873
G1 X67.701 Y213.913 E18.24643
G1 X66.538 Y210.884 E18.39751
G1 X66.42 Y210.521 E18.41528
G1 X65.581 Y207.388 E18.56631
G1 X65.501 Y207.01 E18.5843
G1 X64.99 Y203.749 E18.738
G1 X64.951 Y203.376 E18.75546
G1 X64.784 Y200.192 E18.90393
G1 X64.784 Y199.805 E18.92195
G1 X64.962 Y196.512 E19.07551
G1 X65.002 Y196.138 E19.09302
G1 X65.502 Y192.984 E19.24172
G1 X65.581 Y192.612 E19.25943
G1 X66.42 Y189.479 E19.41045
G1 X66.538 Y189.116 E19.42823
G1 X67.701 Y186.087 E19.57931
G1 X67.856 Y185.74 E19.597
G1 X69.329 Y182.849 E19.74809
G1 X69.52 Y182.518 E19.76588
G1 X71.288 Y179.797 E19.91698
G1 X71.511 Y179.49 E19.93465
G1 X73.553 Y176.967 E20.08579
G1 X73.809 Y176.683 E20.10359
G1 X76.103 Y174.39 E20.25462
G1 X76.385 Y174.136 E20.2723
G1 X78.908 Y172.092 E20.42349
M204 S3000
M205 X10 Y10
G1 F2400 E14.42349
G0 F3000 X76.499 Y174.786
M204 S1800
M205 X8 Y8
G1 F2400 E20.42349
G1 X76.737 Y174.571 E20.43843
G1 X79.26 Y172.527 E20.58962
G1 X79.521 Y172.337 E20.60466
G1 X82.24 Y170.571 E20.75563
G1 X82.52 Y170.41 E20.77067
G1 X85.411 Y168.937 E20.92175
G1 X85.71 Y168.804 E20.93699
G1 X88.794 Y167.626 E21.09071
G1 X89.095 Y167.528 E21.10545
G1 X92.175 Y166.702 E21.25394
G1 X92.497 Y166.634 E21.26926
G1 X95.758 Y166.124 E21.42295
G1 X96.073 Y166.091 E21.4377
G1 X99.258 Y165.924 E21.58621
G1 X99.585 Y165.924 E21.60144
G1 X102.878 Y166.102 E21.755
G1 X103.193 Y166.136 E21.76975
G1 X106.346 Y166.635 E21.91839
G1 X106.663 Y166.702 E21.93348
G1 X109.796 Y167.542 E22.08452
G1 X110.102 Y167.642 E22.09951
G1 X113.133 Y168.806 E22.25069
G1 X113.427 Y168.937 E22.26568
G1 X116.316 Y170.409 E22.41666
G1 X116.595 Y170.57 E22.43166
G1 X119.317 Y172.337 E22.58277
G1 X119.579 Y172.527 E22.59784
G1 X122.101 Y174.57 E22.74897
G1 X122.34 Y174.785 E22.76394
G1 X124.634 Y177.079 E22.91501
G1 X124.85 Y177.319 E22.93004
G1 X126.893 Y179.842 E23.08121
G1 X127.082 Y180.102 E23.09618
G1 X128.848 Y182.821 E23.24715
G1 X129.009 Y183.101 E23.26219
G1 X130.482 Y185.992 E23.41327
G1 X130.613 Y186.286 E23.42826
G1 X131.777 Y189.317 E23.57944
G1 X131.877 Y189.623 E23.59443
G1 X132.717 Y192.756 E23.74547
G1 X132.785 Y193.078 E23.7608
G1 X133.295 Y196.337 E23.9144
G1 X133.328 Y196.652 E23.92914
G1 X133.495 Y199.838 E24.0777
G1 X133.495 Y200.165 E24.09293
G1 X133.317 Y203.458 E24.24649
G1 X133.283 Y203.773 E24.26124
G1 X132.784 Y206.927 E24.40993
G1 X132.717 Y207.244 E24.42502
G1 X131.877 Y210.377 E24.57606
G1 X131.777 Y210.683 E24.59105
G1 X130.614 Y213.712 E24.74213
G1 X130.483 Y214.006 E24.75711
G1 X129.01 Y216.897 E24.9082
G1 X128.849 Y217.176 E24.9232
G1 X127.082 Y219.897 E25.07427
G1 X126.893 Y220.158 E25.08928
G1 X124.851 Y222.681 E25.24041
G1 X124.634 Y222.922 E25.25551
G1 X122.339 Y225.215 E25.40658
G1 X122.101 Y225.429 E25.42148
G1 X119.579 Y227.473 E25.57264
G1 X119.317 Y227.663 E25.58771
G1 X116.597 Y229.429 E25.73872
G1 X116.318 Y229.59 E25.75372
G1 X113.427 Y231.063 E25.9048
G1 X113.133 Y231.194 E25.91979
G1 X110.102 Y232.358 E26.07098
G1 X109.796 Y232.458 E26.08597
G1 X106.663 Y233.298 E26.23701
G1 X106.341 Y233.366 E26.25233
G1 X103.081 Y233.876 E26.40598
G1 X102.766 Y233.909 E26.42072
G1 X99.58 Y234.076 E26.56928
G1 X99.253 Y234.076 E26.58451
G1 X95.961 Y233.898 E26.73802
G1 X95.646 Y233.864 E26.75277
G1 X92.492 Y233.365 E26.90146
G1 X92.175 Y233.298 E26.91655
G1 X89.043 Y232.458 E27.06754
G1 X88.737 Y232.358 E27.08253
G1 X85.705 Y231.194 E27.23376
G1 X85.411 Y231.063 E27.24875
G1 X82.52 Y229.59 E27.39983
G1 X82.24 Y229.429 E27.41487
G1 X79.521 Y227.663 E27.56584
G1 X79.261 Y227.474 E27.58081
G1 X76.738 Y225.431 E27.73198
G1 X76.498 Y225.214 E27.74704
G1 X74.205 Y222.92 E27.89808
G1 X73.989 Y222.681 E27.91308
G1 X71.946 Y220.158 E28.06424
G1 X71.757 Y219.898 E28.07921
G1 X69.989 Y217.177 E28.23031
G1 X69.828 Y216.897 E28.24535
G1 X68.355 Y214.006 E28.39643
G1 X68.224 Y213.712 E28.41142
G1 X67.061 Y210.683 E28.5625
G1 X66.961 Y210.376 E28.57754
G1 X66.122 Y207.243 E28.72856
G1 X66.054 Y206.923 E28.7438
G1 X65.543 Y203.662 E28.89749
G1 X65.51 Y203.346 E28.91229
G1 X65.343 Y200.162 E29.06075
G1 X65.343 Y199.835 E29.07598
G1 X65.521 Y196.542 E29.22954
G1 X65.555 Y196.226 E29.24434
G1 X66.055 Y193.072 E29.39304
G1 X66.122 Y192.757 E29.40803
G1 X66.961 Y189.624 E29.55906
G1 X67.061 Y189.317 E29.57409
G1 X68.224 Y186.288 E29.72517
G1 X68.355 Y185.994 E29.74016
G1 X69.828 Y183.103 E29.89124
G1 X69.989 Y182.823 E29.90628
G1 X71.757 Y180.102 E30.05738
G1 X71.946 Y179.842 E30.07235
G1 X73.988 Y177.319 E30.22349
G1 X74.205 Y177.079 E30.23855
G1 X76.499 Y174.786 E30.38959
M204 S3000
M205 X10 Y10
G1 F2400 E24.38959
G0 F3000 X74.423 Y177.672
M204 S1800
M205 X8 Y8
G1 F2400 E30.38959
G1 X74.6 Y177.475 E30.40192
G1 X76.894 Y175.182 E30.55295
G1 X77.09 Y175.006 E30.56521
G1 X79.613 Y172.962 E30.71641
G1 X79.826 Y172.807 E30.72868
G1 X82.545 Y171.041 E30.87965
G1 X82.774 Y170.909 E30.89196
G1 X85.665 Y169.436 E31.04304
G1 X85.91 Y169.327 E31.05553
G1 X88.994 Y168.149 E31.20925
G1 X89.24 Y168.069 E31.22129
G1 X92.32 Y167.243 E31.36978
G1 X92.584 Y167.187 E31.38235
G1 X95.845 Y166.677 E31.53604
G1 X96.102 Y166.65 E31.54807
G1 X99.287 Y166.483 E31.69658
G1 X99.555 Y166.484 E31.70906
G1 X102.848 Y166.662 E31.86262
G1 X103.106 Y166.689 E31.8747
G1 X106.259 Y167.188 E32.02334
G1 X106.518 Y167.243 E32.03567
G1 X109.651 Y168.083 E32.18671
G1 X109.901 Y168.165 E32.19896
G1 X112.932 Y169.329 E32.35015
G1 X113.173 Y169.436 E32.36243
G1 X116.062 Y170.908 E32.51341
G1 X116.29 Y171.039 E32.52565
G1 X119.012 Y172.806 E32.67676
G1 X119.226 Y172.962 E32.68909
G1 X121.748 Y175.005 E32.84022
G1 X121.944 Y175.181 E32.85249
G1 X124.238 Y177.475 E33.00355
G1 X124.414 Y177.671 E33.01582
G1 X126.457 Y180.194 E33.16699
G1 X126.612 Y180.407 E33.17925
G1 X128.378 Y183.126 E33.33022
G1 X128.51 Y183.355 E33.34253
G1 X129.983 Y186.246 E33.49362
G1 X130.09 Y186.487 E33.50589
G1 X131.254 Y189.518 E33.65708
G1 X131.336 Y189.768 E33.66933
G1 X132.176 Y192.901 E33.82037
G1 X132.232 Y193.164 E33.83289
G1 X132.742 Y196.423 E33.98649
G1 X132.769 Y196.681 E33.99857
G1 X132.936 Y199.867 E34.14713
G1 X132.935 Y200.135 E34.1596
G1 X132.757 Y203.428 E34.31316
G1 X132.73 Y203.686 E34.32524
G1 X132.231 Y206.84 E34.47393
G1 X132.176 Y207.099 E34.48626
G1 X131.336 Y210.232 E34.6373
G1 X131.255 Y210.482 E34.64954
G1 X130.092 Y213.511 E34.80062
G1 X129.984 Y213.752 E34.81292
G1 X128.511 Y216.643 E34.964
G1 X128.379 Y216.871 E34.97627
G1 X126.612 Y219.592 E35.12734
G1 X126.458 Y219.805 E35.13958
G1 X124.416 Y222.328 E35.29072
G1 X124.238 Y222.526 E35.30312
G1 X121.943 Y224.819 E35.45418
G1 X121.749 Y224.994 E35.46635
G1 X119.227 Y227.038 E35.61751
G1 X119.012 Y227.194 E35.62988
G1 X116.292 Y228.96 E35.78088
G1 X116.064 Y229.091 E35.79313
G1 X113.173 Y230.564 E35.94421
G1 X112.932 Y230.671 E35.95649
G1 X109.901 Y231.835 E36.10768
G1 X109.651 Y231.917 E36.11993
G1 X106.518 Y232.757 E36.27096
G1 X106.254 Y232.813 E36.28353
G1 X102.994 Y233.323 E36.43718
G1 X102.737 Y233.35 E36.44921
G1 X99.551 Y233.517 E36.59777
G1 X99.283 Y233.516 E36.61025
G1 X95.991 Y233.338 E36.76376
G1 X95.733 Y233.311 E36.77584
G1 X92.579 Y232.812 E36.92453
G1 X92.32 Y232.757 E36.93686
G1 X89.188 Y231.917 E37.08785
G1 X88.938 Y231.836 E37.10009
G1 X85.906 Y230.672 E37.25132
G1 X85.665 Y230.564 E37.26361
G1 X82.774 Y229.091 E37.4147
G1 X82.545 Y228.959 E37.42701
G1 X79.826 Y227.193 E37.57797
G1 X79.613 Y227.038 E37.59024
G1 X77.09 Y224.995 E37.74141
G1 X76.894 Y224.819 E37.75368
G1 X74.601 Y222.525 E37.90471
G1 X74.425 Y222.329 E37.91697
G1 X72.382 Y219.806 E38.06814
G1 X72.227 Y219.593 E38.08041
G1 X70.459 Y216.872 E38.2315
G1 X70.327 Y216.643 E38.24381
G1 X68.854 Y213.752 E38.3949
G1 X68.746 Y213.511 E38.40719
G1 X67.583 Y210.482 E38.55828
G1 X67.502 Y210.231 E38.57056
G1 X66.663 Y207.098 E38.72158
G1 X66.607 Y206.836 E38.73406
G1 X66.096 Y203.575 E38.88776
G1 X66.069 Y203.317 E38.89984
G1 X65.902 Y200.133 E39.0483
G1 X65.903 Y199.865 E39.06078
G1 X66.081 Y196.572 E39.21434
G1 X66.108 Y196.313 E39.22646
G1 X66.608 Y193.159 E39.37516
G1 X66.663 Y192.902 E39.3874
G1 X67.502 Y189.769 E39.53843
G1 X67.583 Y189.518 E39.55071
G1 X68.746 Y186.489 E39.70179
G1 X68.854 Y186.248 E39.71409
G1 X70.327 Y183.357 E39.86517
G1 X70.459 Y183.128 E39.87748
G1 X72.227 Y180.407 E40.02858
G1 X72.381 Y180.195 E40.04078
G1 X74.423 Y177.672 E40.19192
M204 S3000
M205 X10 Y10
G1 F2400 E34.19192
G0 F3000 X72.696 Y180.712
M204 S1800
M205 X8 Y8
G1 F2400 E40.19192
G1 X72.816 Y180.547 E40.20142
G1 X74.858 Y178.024 E40.35255
G1 X74.996 Y177.871 E40.36215
G1 X77.29 Y175.578 E40.51318
G1 X77.442 Y175.441 E40.52271
G1 X79.965 Y173.397 E40.6739
G1 X80.131 Y173.276 E40.68347
