;FLAVOR:Marlin
;TIME:9359
;Filament used: 4.30064m
;Layer height: 0.2
;MINX:87.672
;MINY:151.8
;MINZ:0.2
;MAXX:150.072
;MAXY:248.2
;MAXZ:4
;Generated with Cura_SteamEngine 5.0.0
M140 S55
M105
M190 S55
M104 S195
M105
M109 S195
M82 ;absolute extrusion mode
M107 ;Start with the fan off
G21 ;Set units to millimeters
G91 ;Change to relative positioning mode for retract filament and nozzle lifting
G1 F200 E-3 ;Retract 3mm filament for a clean start
G92 E0 ;Zero the extruded length
G1 F1000 Z5 ;Lift the nozzle 5mm before homing axes
G90 ;Absolute positioning
M82 ;Set extruder to absolute mode too
G28 X0 Y0 ;First move X/Y to min endstops
G28 Z0 ;Then move Z to min endstops
G1 F1000 Z15 ;After homing lift the nozzle 15mm before start printing

G92 E0
G92 E0
G1 F2400 E-6
;LAYER_COUNT:20
;LAYER:0
M106 S255
M204 S3000
M205 X10 Y10
G1 F600 Z0.275
G0 F3000 X89.983 Y152.249 Z0.275
G1 F600 Z0.2
G0 F3000 X87.672 Y156
M204 S1800
M205 X8 Y8
;TYPE:SKIRT
G1 F2400 E0
G1 X87.712 Y155.422 E0.02698
G1 X87.831 Y154.855 E0.05396
G1 X88.027 Y154.31 E0.08092
G1 X88.296 Y153.797 E0.1079
G1 X88.633 Y153.326 E0.13486
G1 X89.032 Y152.906 E0.16184
G1 X89.485 Y152.544 E0.18884
G1 X89.983 Y152.249 E0.21579
G1 X90.517 Y152.024 E0.24278
G1 X91.077 Y151.876 E0.26975
G1 X91.872 Y151.8 E0.30693
G1 X145.872 Y151.8 E2.8214
G1 X146.45 Y151.84 E2.84838
G1 X147.017 Y151.959 E2.87536
G1 X147.562 Y152.155 E2.90232
G1 X148.075 Y152.424 E2.9293
G1 X148.546 Y152.761 E2.95626
G1 X148.966 Y153.16 E2.98324
G1 X149.328 Y153.613 E3.01024
G1 X149.623 Y154.111 E3.03719
G1 X149.848 Y154.645 E3.06417
G1 X149.996 Y155.205 E3.09115
G1 X150.072 Y156 E3.12833
G1 X150.072 Y244 E7.22598
G1 X150.032 Y244.578 E7.25296
G1 X149.913 Y245.145 E7.27994
G1 X149.717 Y245.69 E7.30691
G1 X149.448 Y246.203 E7.33388
G1 X149.111 Y246.674 E7.36085
G1 X148.712 Y247.094 E7.38782
G1 X148.259 Y247.456 E7.41482
G1 X147.761 Y247.751 E7.44177
G1 X147.227 Y247.976 E7.46876
G1 X146.667 Y248.124 E7.49573
G1 X145.872 Y248.2 E7.53292
G1 X91.872 Y248.2 E10.04738
G1 X91.294 Y248.16 E10.07436
G1 X90.727 Y248.041 E10.10134
G1 X90.182 Y247.845 E10.12831
G1 X89.669 Y247.576 E10.15528
G1 X89.198 Y247.239 E10.18225
G1 X88.778 Y246.84 E10.20922
G1 X88.416 Y246.387 E10.23622
G1 X88.121 Y245.889 E10.26317
G1 X87.896 Y245.355 E10.29016
G1 X87.748 Y244.795 E10.31713
G1 X87.672 Y244 E10.35432
G1 X87.672 Y156 E14.45196
M204 S3000
M205 X10 Y10
G0 F3000 X88.232 Y156
M204 S1800
M205 X8 Y8
G1 F2400 X88.272 Y155.462 E14.47708
G1 X88.391 Y154.936 E14.5022
G1 X88.586 Y154.434 E14.52727
G1 X88.854 Y153.965 E14.55243
G1 X89.187 Y153.542 E14.57749
G1 X89.58 Y153.172 E14.60263
G1 X90.023 Y152.865 E14.62772
G1 X90.507 Y152.626 E14.65286
G1 X91.02 Y152.461 E14.67795
G1 X91.552 Y152.374 E14.70305
G1 X91.872 Y152.36 E14.71797
G1 X145.872 Y152.36 E17.23243
G1 X146.41 Y152.4 E17.25755
G1 X146.936 Y152.519 E17.28267
G1 X147.438 Y152.714 E17.30774
G1 X147.907 Y152.982 E17.3329
G1 X148.33 Y153.315 E17.35796
G1 X148.7 Y153.708 E17.3831
G1 X149.007 Y154.151 E17.40819
G1 X149.246 Y154.635 E17.43333
G1 X149.411 Y155.148 E17.45842
G1 X149.498 Y155.68 E17.48352
G1 X149.512 Y156 E17.49844
G1 X149.512 Y244 E21.59609
G1 X149.472 Y244.538 E21.62121
G1 X149.353 Y245.064 E21.64632
G1 X149.158 Y245.566 E21.6714
G1 X148.89 Y246.035 E21.69655
G1 X148.557 Y246.458 E21.72162
G1 X148.164 Y246.828 E21.74675
G1 X147.721 Y247.135 E21.77185
G1 X147.237 Y247.374 E21.79698
G1 X146.724 Y247.539 E21.82208
G1 X146.192 Y247.626 E21.84718
G1 X145.872 Y247.64 E21.86209
G1 X91.872 Y247.64 E24.37656
G1 X91.334 Y247.6 E24.40168
G1 X90.808 Y247.481 E24.42679
G1 X90.306 Y247.286 E24.45187
G1 X89.837 Y247.018 E24.47702
G1 X89.414 Y246.685 E24.50209
G1 X89.044 Y246.292 E24.52722
G1 X88.737 Y245.849 E24.55232
G1 X88.498 Y245.365 E24.57745
G1 X88.333 Y244.852 E24.60255
G1 X88.246 Y244.32 E24.62765
G1 X88.232 Y244 E24.64256
G1 X88.232 Y156 E28.74021
M204 S3000
M205 X10 Y10
G0 F3000 X88.792 Y156
M204 S1800
M205 X8 Y8
G1 F2400 X88.832 Y155.506 E28.76329
G1 X88.951 Y155.024 E28.78641
G1 X89.145 Y154.568 E28.80948
G1 X89.41 Y154.149 E28.83257
G1 X89.74 Y153.778 E28.85569
G1 X90.124 Y153.464 E28.87878
G1 X90.554 Y153.216 E28.9019
G1 X91.017 Y153.041 E28.92495
G1 X91.504 Y152.942 E28.94809
G1 X91.872 Y152.92 E28.96525
G1 X145.872 Y152.92 E31.47972
G1 X146.366 Y152.96 E31.5028
G1 X146.848 Y153.079 E31.52591
G1 X147.304 Y153.273 E31.54899
G1 X147.723 Y153.538 E31.57207
G1 X148.094 Y153.868 E31.5952
G1 X148.408 Y154.252 E31.61829
G1 X148.656 Y154.682 E31.64141
G1 X148.831 Y155.145 E31.66445
G1 X148.93 Y155.632 E31.6876
G1 X148.952 Y156 E31.70476
G1 X148.952 Y244 E35.80241
G1 X148.912 Y244.494 E35.82549
G1 X148.793 Y244.976 E35.84861
G1 X148.599 Y245.432 E35.87168
G1 X148.334 Y245.851 E35.89477
G1 X148.004 Y246.222 E35.91789
G1 X147.62 Y246.536 E35.94098
G1 X147.19 Y246.784 E35.9641
G1 X146.727 Y246.959 E35.98715
G1 X146.24 Y247.058 E36.01029
G1 X145.872 Y247.08 E36.02745
G1 X91.872 Y247.08 E38.54192
G1 X91.378 Y247.04 E38.565
G1 X90.896 Y246.921 E38.58811
G1 X90.44 Y246.727 E38.61119
G1 X90.021 Y246.462 E38.63427
G1 X89.65 Y246.132 E38.6574
G1 X89.336 Y245.748 E38.68049
G1 X89.088 Y245.318 E38.70361
G1 X88.913 Y244.855 E38.72665
G1 X88.814 Y244.368 E38.7498
G1 X88.792 Y244 E38.76696
G1 X88.792 Y156 E42.86461
M204 S3000
M205 X10 Y10
G0 F3000 X89.352 Y156
M204 S1800
M205 X8 Y8
G1 F2400 X89.392 Y155.553 E42.88551
G1 X89.51 Y155.121 E42.90636
G1 X89.704 Y154.716 E42.92727
G1 X89.966 Y154.352 E42.94815
G1 X90.288 Y154.04 E42.96903
G1 X90.661 Y153.79 E42.98994
G1 X91.072 Y153.61 E43.01083
G1 X91.508 Y153.506 E43.0317
G1 X91.872 Y153.48 E43.0487
G1 X145.872 Y153.48 E45.56316
G1 X146.319 Y153.52 E45.58406
G1 X146.751 Y153.638 E45.60491
G1 X147.156 Y153.832 E45.62582
G1 X147.52 Y154.094 E45.64671
G1 X147.832 Y154.416 E45.66758
G1 X148.082 Y154.789 E45.68849
G1 X148.262 Y155.2 E45.70939
G1 X148.366 Y155.636 E45.73026
G1 X148.392 Y156 E45.74725
G1 X148.392 Y244 E49.8449
G1 X148.352 Y244.447 E49.8658
G1 X148.234 Y244.879 E49.88665
G1 X148.04 Y245.284 E49.90756
G1 X147.778 Y245.648 E49.92844
G1 X147.456 Y245.96 E49.94932
G1 X147.083 Y246.21 E49.97023
G1 X146.672 Y246.39 E49.99112
G1 X146.236 Y246.494 E50.01199
G1 X145.872 Y246.52 E50.02899
G1 X91.872 Y246.52 E52.54345
G1 X91.425 Y246.48 E52.56435
G1 X90.993 Y246.362 E52.5852
G1 X90.588 Y246.168 E52.60611
G1 X90.224 Y245.906 E52.627
G1 X89.912 Y245.584 E52.64787
G1 X89.662 Y245.211 E52.66878
G1 X89.482 Y244.8 E52.68968
G1 X89.378 Y244.364 E52.71055
G1 X89.352 Y244 E52.72754
G1 X89.352 Y156 E56.82519
M204 S3000
M205 X10 Y10
G0 F3000 X89.912 Y156
M204 S1800
M205 X8 Y8
G1 F2400 X89.952 Y155.607 E56.84358
G1 X90.07 Y155.229 E56.86202
G1 X90.261 Y154.883 E56.88042
G1 X90.518 Y154.582 E56.89885
G1 X90.831 Y154.34 E56.91728
G1 X91.185 Y154.164 E56.93569
G1 X91.568 Y154.064 E56.95412
G1 X91.872 Y154.04 E56.96832
G1 X145.872 Y154.04 E59.48278
G1 X146.265 Y154.08 E59.50118
G1 X146.643 Y154.198 E59.51962
G1 X146.989 Y154.389 E59.53802
G1 X147.29 Y154.646 E59.55645
G1 X147.532 Y154.959 E59.57487
G1 X147.708 Y155.313 E59.59328
G1 X147.808 Y155.696 E59.61171
G1 X147.832 Y156 E59.62591
G1 X147.832 Y244 E63.72356
G1 X147.792 Y244.393 E63.74195
G1 X147.674 Y244.771 E63.76039
G1 X147.483 Y245.117 E63.7788
G1 X147.226 Y245.418 E63.79723
G1 X146.913 Y245.66 E63.81565
G1 X146.559 Y245.836 E63.83406
G1 X146.176 Y245.936 E63.85249
G1 X145.872 Y245.96 E63.86669
G1 X91.872 Y245.96 E66.38116
G1 X91.479 Y245.92 E66.39955
G1 X91.101 Y245.802 E66.41799
G1 X90.755 Y245.611 E66.43639
G1 X90.454 Y245.354 E66.45482
G1 X90.212 Y245.041 E66.47324
G1 X90.036 Y244.687 E66.49165
G1 X89.936 Y244.304 E66.51008
G1 X89.912 Y244 E66.52428
G1 X89.912 Y156 E70.62193
M204 S3000
M205 X10 Y10
G0 F3000 X90.472 Y156
M204 S1800
M205 X8 Y8
G1 F2400 X90.512 Y155.668 E70.6375
G1 X90.629 Y155.356 E70.65302
G1 X90.817 Y155.079 E70.66861
G1 X91.065 Y154.856 E70.68414
G1 X91.359 Y154.697 E70.6997
G1 X91.872 Y154.6 E70.72401
G1 X145.872 Y154.6 E73.23848
G1 X146.204 Y154.64 E73.25405
G1 X146.516 Y154.757 E73.26957
G1 X146.793 Y154.945 E73.28515
G1 X147.016 Y155.193 E73.30068
G1 X147.175 Y155.487 E73.31625
G1 X147.272 Y156 E73.34056
G1 X147.272 Y244 E77.43821
G1 X147.232 Y244.332 E77.45378
G1 X147.115 Y244.644 E77.46929
G1 X146.927 Y244.921 E77.48488
G1 X146.679 Y245.144 E77.50041
G1 X146.385 Y245.303 E77.51598
G1 X145.872 Y245.4 E77.54029
G1 X91.872 Y245.4 E80.05475
G1 X91.54 Y245.36 E80.07032
G1 X91.228 Y245.243 E80.08584
G1 X90.951 Y245.055 E80.10143
G1 X90.728 Y244.807 E80.11696
G1 X90.569 Y244.513 E80.13252
G1 X90.472 Y244 E80.15683
G1 X90.472 Y156 E84.25448
M204 S3000
M205 X10 Y10
G0 F3000 X91.032 Y156
M204 S1800
M205 X8 Y8
G1 F2400 X91.072 Y155.745 E84.2665
G1 X91.187 Y155.513 E84.27856
G1 X91.368 Y155.328 E84.29061
G1 X91.596 Y155.207 E84.30263
G1 X91.872 Y155.16 E84.31567
G1 X145.872 Y155.16 E86.83013
G1 X146.127 Y155.2 E86.84215
G1 X146.359 Y155.315 E86.85421
G1 X146.544 Y155.496 E86.86626
G1 X146.665 Y155.724 E86.87828
G1 X146.712 Y156 E86.89132
G1 X146.712 Y244 E90.98896
G1 X146.672 Y244.255 E91.00098
G1 X146.557 Y244.487 E91.01304
G1 X146.376 Y244.672 E91.02509
G1 X146.148 Y244.793 E91.03711
G1 X145.872 Y244.84 E91.05015
G1 X91.872 Y244.84 E93.56461
G1 X91.617 Y244.8 E93.57663
G1 X91.385 Y244.685 E93.58869
G1 X91.2 Y244.504 E93.60074
G1 X91.079 Y244.276 E93.61276
G1 X91.032 Y244 E93.6258
G1 X91.032 Y156 E97.72345
M204 S3000
M205 X10 Y10
G0 F3000 X91.592 Y156
M204 S1800
M205 X8 Y8
G1 F2400 X91.631 Y155.857 E97.73035
G1 X91.738 Y155.754 E97.73726
G1 X91.872 Y155.72 E97.7437
G1 X145.872 Y155.72 E100.25817
G1 X146.015 Y155.759 E100.26507
G1 X146.118 Y155.866 E100.27198
G1 X146.152 Y156 E100.27842
G1 X146.152 Y244 E104.37607
G1 X146.113 Y244.143 E104.38297
G1 X146.006 Y244.246 E104.38989
G1 X145.872 Y244.28 E104.39633
G1 X91.872 Y244.28 E106.91079
G1 X91.729 Y244.241 E106.91769
G1 X91.626 Y244.134 E106.92461
G1 X91.592 Y244 E106.93105
G1 X91.592 Y156 E111.0287
M204 S3000
M205 X10 Y10
G1 F2400 E105.0287
;MESH:9_4_1.stl
G0 F3000 X92.296 Y156.424
G0 X96.164 Y165.478
G1 F2400 E111.0287
G0 F3000 X96.594 Y165.446
M204 S1800
M205 X8 Y8
;TYPE:WALL-OUTER
G1 F900 X96.63 Y164.948 E111.05194
G1 X96.76 Y164.5 E111.07367
G1 X96.972 Y164.101 E111.0947
G1 X97.259 Y163.747 E111.11593
G1 X97.61 Y163.462 E111.13698
G1 X98.011 Y163.249 E111.15812
G1 X98.459 Y163.119 E111.17984
G1 X99.07 Y163.089 E111.20833
G1 X99.578 Y163.19 E111.23245
G1 X99.985 Y163.37 E111.25317
G1 X100.358 Y163.632 E111.27439
G1 X100.671 Y163.959 E111.29547
G1 X100.912 Y164.343 E111.31658
G1 X101.074 Y164.77 E111.33785
G1 X101.143 Y165.362 E111.3656
G1 X101.109 Y165.76 E111.3842
G1 X100.974 Y166.222 E111.40661
G1 X100.752 Y166.633 E111.42836
G1 X100.563 Y166.886 E111.44307
G1 X100.226 Y167.193 E111.46429
G1 X99.837 Y167.425 E111.48539
G1 X99.409 Y167.574 E111.50649
G1 X98.956 Y167.637 E111.52778
G1 X98.504 Y167.609 E111.54887
G1 X98.082 Y167.495 E111.56923
G1 X97.663 Y167.291 E111.59093
G1 X97.299 Y167.009 E111.61237
G1 X97.004 Y166.665 E111.63347
G1 X96.786 Y166.278 E111.65415
G1 X96.644 Y165.84 E111.67559
G1 X96.594 Y165.446 E111.69408
M204 S3000
M205 X10 Y10
G0 F3000 X96.608 Y165.247
G0 X96.167 Y165.235
G0 X96.514 Y164.15
G0 X97.603 Y163.032
G0 X116.164 Y160.119
G0 X116.594 Y160.087
M204 S1800
M205 X8 Y8
G1 F900 X116.63 Y159.589 E111.71733
G1 X116.76 Y159.141 E111.73906
G1 X116.972 Y158.742 E111.76009
G1 X117.259 Y158.388 E111.78131
G1 X117.61 Y158.103 E111.80237
G1 X118.011 Y157.89 E111.82351
G1 X118.46 Y157.76 E111.84528
G1 X119.07 Y157.73 E111.87372
G1 X119.578 Y157.831 E111.89783
G1 X119.985 Y158.011 E111.91856
G1 X120.358 Y158.273 E111.93978
G1 X120.671 Y158.6 E111.96086
G1 X120.912 Y158.984 E111.98197
G1 X121.074 Y159.411 E112.00323
G1 X121.146 Y159.858 E112.02432
G1 X121.13 Y160.309 E112.04533
G1 X121.024 Y160.751 E112.0665
G1 X120.837 Y161.155 E112.08722
G1 X120.563 Y161.527 E112.10874
G1 X120.226 Y161.834 E112.12997
G1 X119.837 Y162.066 E112.15106
G1 X119.409 Y162.215 E112.17216
G1 X118.956 Y162.278 E112.19345
G1 X118.504 Y162.25 E112.21454
G1 X117.948 Y162.073 E112.24171
G1 X117.565 Y161.858 E112.26216
G1 X117.237 Y161.579 E112.28221
G1 X116.931 Y161.18 E112.30563
G1 X116.786 Y160.919 E112.31953
G1 X116.644 Y160.481 E112.34097
G1 X116.594 Y160.087 E112.35947
M204 S3000
M205 X10 Y10
G0 F3000 X116.608 Y159.888
G0 X116.167 Y159.876
G0 X116.36 Y160.843
G0 X117.272 Y162.112
G0 X136.221 Y165.915
G0 X136.644 Y165.84
M204 S1800
M205 X8 Y8
G1 F900 X136.594 Y165.446 E112.37796
G1 X136.63 Y164.948 E112.40121
G1 X136.76 Y164.5 E112.42293
G1 X136.972 Y164.101 E112.44397
G1 X137.259 Y163.747 E112.46519
G1 X137.61 Y163.462 E112.48624
G1 X138.011 Y163.249 E112.50738
G1 X138.459 Y163.119 E112.52911
G1 X139.07 Y163.089 E112.55759
G1 X139.578 Y163.19 E112.58171
G1 X139.985 Y163.37 E112.60243
G1 X140.358 Y163.632 E112.62366
G1 X140.671 Y163.959 E112.64473
G1 X140.912 Y164.343 E112.66584
G1 X141.074 Y164.77 E112.68711
G1 X141.146 Y165.217 E112.70819
G1 X141.13 Y165.668 E112.72921
G1 X141.024 Y166.11 E112.75037
G1 X140.837 Y166.514 E112.7711
G1 X140.563 Y166.886 E112.79261
G1 X140.226 Y167.193 E112.81384
G1 X139.837 Y167.425 E112.83493
G1 X139.409 Y167.574 E112.85603
G1 X138.956 Y167.637 E112.87733
G1 X138.504 Y167.609 E112.89842
G1 X138.082 Y167.495 E112.91877
G1 X137.663 Y167.291 E112.94047
G1 X137.299 Y167.009 E112.96191
G1 X137.004 Y166.665 E112.98301
G1 X136.786 Y166.278 E113.0037
G1 X136.644 Y165.84 E113.02514
M204 S3000
M205 X10 Y10
G0 F3000 X136.619 Y165.642
G0 X136.186 Y165.719
G0 X136.221 Y235.197
G0 X136.644 Y235.122
M204 S1800
M205 X8 Y8
G1 F900 X136.594 Y234.728 E113.04363
G1 X136.63 Y234.23 E113.06688
G1 X136.772 Y233.758 E113.08983
G1 X136.972 Y233.383 E113.10962
G1 X137.259 Y233.029 E113.13084
G1 X137.61 Y232.744 E113.1519
G1 X138.011 Y232.531 E113.17304
G1 X138.459 Y232.401 E113.19476
G1 X139.055 Y232.371 E113.22255
G1 X139.578 Y232.472 E113.24735
G1 X139.985 Y232.652 E113.26807
G1 X140.358 Y232.914 E113.2893
G1 X140.671 Y233.241 E113.31037
G1 X140.912 Y233.625 E113.33149
G1 X141.074 Y234.052 E113.35275
G1 X141.146 Y234.499 E113.37383
G1 X141.13 Y234.95 E113.39485
G1 X141.024 Y235.392 E113.41601
G1 X140.837 Y235.796 E113.43674
G1 X140.563 Y236.168 E113.45825
G1 X140.226 Y236.475 E113.47948
G1 X139.837 Y236.707 E113.50057
G1 X139.409 Y236.856 E113.52167
G1 X138.956 Y236.919 E113.54297
G1 X138.504 Y236.891 E113.56406
G1 X138.082 Y236.777 E113.58441
G1 X137.663 Y236.573 E113.60611
G1 X137.299 Y236.291 E113.62755
G1 X137.004 Y235.947 E113.64866
G1 X136.786 Y235.56 E113.66934
G1 X136.644 Y235.122 E113.69078
M204 S3000
M205 X10 Y10
G0 F3000 X136.619 Y234.924
G0 X136.186 Y235.001
G0 X118.091 Y237.467
G0 X116.799 Y238.348
G0 X116.164 Y240.119
G0 X116.594 Y240.087
M204 S1800
M205 X8 Y8
G1 F900 X116.63 Y239.589 E113.71403
G1 X116.76 Y239.141 E113.73575
G1 X116.972 Y238.742 E113.75679
G1 X117.259 Y238.388 E113.77801
G1 X117.61 Y238.103 E113.79906
G1 X118.011 Y237.89 E113.8202
G1 X118.459 Y237.76 E113.84193
G1 X119.084 Y237.73 E113.87106
G1 X119.577 Y237.831 E113.89449
G1 X120.006 Y238.025 E113.91642
G1 X120.358 Y238.273 E113.93647
G1 X120.748 Y238.719 E113.96406
G1 X120.912 Y238.984 E113.97857
G1 X121.074 Y239.411 E113.99983
G1 X121.146 Y239.858 E114.02092
G1 X121.13 Y240.309 E114.04193
G1 X121.024 Y240.751 E114.06309
G1 X120.837 Y241.155 E114.08382
G1 X120.563 Y241.527 E114.10534
G1 X120.226 Y241.834 E114.12656
G1 X119.837 Y242.066 E114.14765
G1 X119.409 Y242.216 E114.16877
G1 X118.957 Y242.278 E114.19002
G1 X118.503 Y242.25 E114.2112
G1 X118.082 Y242.136 E114.23151
G1 X117.663 Y241.932 E114.25321
G1 X117.299 Y241.65 E114.27465
G1 X117.004 Y241.306 E114.29575
G1 X116.786 Y240.919 E114.31643
G1 X116.644 Y240.481 E114.33787
G1 X116.594 Y240.087 E114.35637
M204 S3000
M205 X10 Y10
G0 F3000 X116.608 Y239.888
G0 X116.167 Y239.876
G0 X98.217 Y237.209
G0 X96.883 Y236.393
G0 X96.221 Y235.197
G0 X96.644 Y235.122
M204 S1800
M205 X8 Y8
G1 F900 X96.594 Y234.728 E114.37486
G1 X96.63 Y234.23 E114.39811
G1 X96.76 Y233.782 E114.41983
G1 X96.972 Y233.383 E114.44087
G1 X97.259 Y233.029 E114.46209
G1 X97.61 Y232.744 E114.48314
