;FLAVOR:Marlin
;TIME:12549
;Filament used: 10.6262m
;Layer height: 0.2
;MINX:51.571
;MINY:133.55
;MINZ:0.2
;MAXX:167.961
;MAXY:266.445
;MAXZ:27
;Generated with Cura_SteamEngine 5.0.0
M140 S55
M105
M190 S55
M104 S195
M105
M109 S195
M82 ;absolute extrusion mode
M107 ;Start with the fan off
G21 ;Set units to millimeters
G91 ;Change to relative positioning mode for retract filament and nozzle lifting
G1 F200 E-3 ;Retract 3mm filament for a clean start
G92 E0 ;Zero the extruded length
G1 F1000 Z5 ;Lift the nozzle 5mm before homing axes
G90 ;Absolute positioning
M82 ;Set extruder to absolute mode too
G28 X0 Y0 ;First move X/Y to min endstops
G28 Z0 ;Then move Z to min endstops
G1 F1000 Z15 ;After homing lift the nozzle 15mm before start printing

G92 E0
G92 E0
G1 F2400 E-6
;LAYER_COUNT:135
;LAYER:0
M106 S255
M204 S3000
M205 X10 Y10
G1 F600 Z0.275
G0 F3000 X56.36 Y134.292 Z0.275
G1 F600 Z0.2
G0 F3000 X51.571 Y141.555
M204 S1800
M205 X8 Y8
;TYPE:SKIRT
G1 F2400 E0
G1 X51.597 Y141.044 E0.02383
G1 X51.751 Y140.045 E0.07089
G1 X51.892 Y139.465 E0.09869
G1 X52.11 Y138.816 E0.13057
G1 X52.444 Y138.063 E0.16892
G1 X52.838 Y137.368 E0.20612
G1 X53.3 Y136.711 E0.24352
G1 X53.835 Y136.091 E0.28165
G1 X54.409 Y135.545 E0.31854
G1 X55.05 Y135.046 E0.35637
G1 X55.742 Y134.608 E0.3945
G1 X56.36 Y134.292 E0.42682
G1 X56.834 Y134.095 E0.45073
G1 X57.585 Y133.848 E0.48754
G1 X58.367 Y133.673 E0.52485
G1 X59.171 Y133.574 E0.56257
G1 X59.766 Y133.55 E0.5903
G1 X159.962 Y133.555 E5.25585
G1 X160.473 Y133.581 E5.27967
G1 X161.17 Y133.673 E5.31241
G1 X161.947 Y133.848 E5.34949
G1 X162.728 Y134.107 E5.38781
G1 X163.449 Y134.427 E5.42454
G1 X164.143 Y134.819 E5.46165
G1 X164.802 Y135.282 E5.49916
G1 X165.207 Y135.616 E5.5236
G1 X165.717 Y136.112 E5.55673
G1 X166.225 Y136.702 E5.59298
G1 X166.697 Y137.374 E5.63122
G1 X167.087 Y138.062 E5.66804
G1 X167.416 Y138.805 E5.70588
G1 X167.668 Y139.571 E5.74343
G1 X167.842 Y140.348 E5.78051
G1 X167.941 Y141.147 E5.818
G1 X167.961 Y141.553 E5.83692
G1 X167.961 Y258.445 E11.27991
G1 X167.906 Y259.221 E11.31613
G1 X167.762 Y260.053 E11.35545
G1 X167.564 Y260.782 E11.39062
G1 X167.26 Y261.572 E11.43004
G1 X166.91 Y262.271 E11.46644
G1 X166.474 Y262.961 E11.50444
G1 X165.987 Y263.588 E11.54141
G1 X165.427 Y264.179 E11.57932
G1 X164.815 Y264.708 E11.61699
G1 X164.153 Y265.175 E11.65471
G1 X163.46 Y265.568 E11.69181
G1 X162.984 Y265.791 E11.71629
G1 X162.336 Y266.034 E11.74851
G1 X161.568 Y266.247 E11.78562
G1 X160.775 Y266.385 E11.8231
G1 X159.97 Y266.445 E11.86069
G1 X59.572 Y266.445 E16.53564
G1 X58.796 Y266.39 E16.57187
G1 X57.963 Y266.246 E16.61123
G1 X57.228 Y266.045 E16.64671
G1 X56.461 Y265.752 E16.68495
G1 X55.756 Y265.4 E16.72164
G1 X55.05 Y264.955 E16.7605
G1 X54.421 Y264.465 E16.79762
G1 X54.048 Y264.126 E16.82109
G1 X53.568 Y263.615 E16.85374
G1 X53.065 Y262.972 E16.89175
G1 X52.637 Y262.297 E16.92897
G1 X52.267 Y261.561 E16.96733
G1 X51.979 Y260.814 E17.00461
G1 X51.769 Y260.052 E17.04141
G1 X51.631 Y259.259 E17.07889
G1 X51.571 Y258.454 E17.11648
G1 X51.571 Y141.555 E22.55979
M204 S3000
M205 X10 Y10
G0 F3000 X52.131 Y141.555
M204 S1800
M205 X8 Y8
G1 F2400 X52.202 Y140.714 E22.59909
G1 X52.303 Y140.143 E22.62609
G1 X52.432 Y139.614 E22.65144
G1 X52.638 Y139.004 E22.68142
G1 X52.95 Y138.303 E22.71715
G1 X53.318 Y137.656 E22.75181
G1 X53.75 Y137.044 E22.78669
G1 X54.249 Y136.468 E22.82218
G1 X54.785 Y135.96 E22.85657
G1 X55.382 Y135.496 E22.89177
G1 X56.006 Y135.102 E22.92614
G1 X56.586 Y134.804 E22.9565
G1 X57.384 Y134.493 E22.99638
G1 X58.1 Y134.296 E23.03096
G1 X58.84 Y134.169 E23.06592
G1 X59.589 Y134.114 E23.10089
G1 X159.962 Y134.115 E27.77468
G1 X160.707 Y134.17 E27.80946
G1 X161.432 Y134.296 E27.84373
G1 X162.158 Y134.497 E27.87881
G1 X162.866 Y134.77 E27.91414
G1 X163.52 Y135.098 E27.94821
G1 X164.153 Y135.498 E27.98307
G1 X164.685 Y135.905 E28.01426
G1 X165.319 Y136.506 E28.05494
G1 X165.792 Y137.057 E28.08876
G1 X166.231 Y137.684 E28.1244
G1 X166.593 Y138.326 E28.15872
G1 X166.899 Y139.019 E28.19399
G1 X167.132 Y139.732 E28.22892
G1 X167.293 Y140.458 E28.26355
G1 X167.384 Y141.201 E28.2984
G1 X167.401 Y141.553 E28.31481
G1 X167.401 Y258.445 E33.75779
G1 X167.349 Y259.168 E33.79154
G1 X167.213 Y259.942 E33.82814
G1 X167.027 Y260.622 E33.86096
G1 X166.743 Y261.357 E33.89765
G1 X166.416 Y262.007 E33.93154
G1 X166.008 Y262.651 E33.96703
G1 X165.554 Y263.234 E34.00144
G1 X165.03 Y263.783 E34.03678
G1 X164.46 Y264.275 E34.07184
G1 X163.842 Y264.709 E34.10701
G1 X163.196 Y265.074 E34.14156
G1 X162.51 Y265.378 E34.1765
G1 X161.811 Y265.609 E34.21077
G1 X161.082 Y265.773 E34.24557
G1 X160.334 Y265.867 E34.28067
G1 X159.766 Y265.89 E34.30714
G1 X59.572 Y265.885 E38.9726
G1 X58.848 Y265.833 E39.00639
G1 X58.074 Y265.697 E39.04299
G1 X57.388 Y265.509 E39.07611
G1 X56.675 Y265.234 E39.11169
G1 X56.018 Y264.905 E39.14591
G1 X55.361 Y264.489 E39.18212
G1 X54.777 Y264.032 E39.21665
G1 X54.245 Y263.527 E39.2508
G1 X53.75 Y262.956 E39.28599
G1 X53.318 Y262.344 E39.32087
G1 X52.945 Y261.688 E39.35601
G1 X52.635 Y260.987 E39.3917
G1 X52.407 Y260.295 E39.42563
G1 X52.243 Y259.566 E39.46042
G1 X52.149 Y258.818 E39.49552
G1 X52.126 Y258.25 E39.52199
G1 X52.131 Y141.555 E44.9558
M204 S3000
M205 X10 Y10
G0 F3000 X52.691 Y141.555
M204 S1800
M205 X8 Y8
G1 F2400 X52.753 Y140.812 E44.99052
G1 X52.854 Y140.241 E45.01752
G1 X53.038 Y139.552 E45.05073
G1 X53.287 Y138.899 E45.08327
G1 X53.597 Y138.279 E45.11555
G1 X53.965 Y137.695 E45.14769
G1 X54.395 Y137.141 E45.18035
G1 X54.876 Y136.632 E45.21295
G1 X55.398 Y136.181 E45.24508
G1 X55.885 Y135.83 E45.27303
G1 X56.609 Y135.415 E45.31189
G1 X57.21 Y135.15 E45.34247
G1 X57.857 Y134.934 E45.37423
G1 X58.532 Y134.781 E45.40646
G1 X59.226 Y134.693 E45.43904
G1 X59.766 Y134.67 E45.4642
G1 X159.962 Y134.675 E50.12975
G1 X160.624 Y134.724 E50.16066
G1 X161.296 Y134.839 E50.19241
G1 X161.968 Y135.024 E50.22486
G1 X162.626 Y135.276 E50.25767
G1 X163.232 Y135.579 E50.28922
G1 X163.82 Y135.948 E50.32154
G1 X164.318 Y136.328 E50.35071
G1 X164.922 Y136.901 E50.38948
G1 X165.359 Y137.413 E50.42082
G1 X165.765 Y137.994 E50.45383
G1 X166.099 Y138.589 E50.4856
G1 X166.381 Y139.233 E50.51834
G1 X166.595 Y139.893 E50.55064
G1 X166.744 Y140.568 E50.58283
G1 X166.827 Y141.255 E50.61505
G1 X166.841 Y141.553 E50.62895
G1 X166.841 Y258.445 E56.07193
G1 X166.791 Y259.116 E56.10326
G1 X166.664 Y259.831 E56.13707
G1 X166.49 Y260.463 E56.1676
G1 X166.226 Y261.142 E56.20152
G1 X165.921 Y261.744 E56.23294
G1 X165.542 Y262.341 E56.26587
G1 X165.121 Y262.879 E56.29768
G1 X164.634 Y263.388 E56.33048
G1 X164.105 Y263.842 E56.36294
G1 X163.531 Y264.243 E56.39555
G1 X162.931 Y264.581 E56.42761
G1 X162.322 Y264.85 E56.45861
G1 X161.675 Y265.066 E56.49038
G1 X161 Y265.219 E56.5226
G1 X160.306 Y265.307 E56.55518
G1 X159.766 Y265.33 E56.58035
G1 X59.572 Y265.325 E61.2458
G1 X58.901 Y265.275 E61.27713
G1 X58.185 Y265.148 E61.31099
G1 X57.548 Y264.972 E61.34176
G1 X56.889 Y264.717 E61.37466
G1 X56.279 Y264.41 E61.40646
G1 X55.672 Y264.024 E61.43996
G1 X55.132 Y263.6 E61.47193
G1 X54.659 Y263.15 E61.50233
G1 X54.2 Y262.622 E61.53491
G1 X53.798 Y262.056 E61.56723
G1 X53.452 Y261.449 E61.59977
G1 X53.163 Y260.8 E61.63285
G1 X52.95 Y260.159 E61.6643
G1 X52.797 Y259.484 E61.69653
G1 X52.709 Y258.79 E61.7291
G1 X52.686 Y258.25 E61.75427
G1 X52.691 Y141.555 E67.18808
M204 S3000
M205 X10 Y10
G0 F3000 X53.251 Y141.555
M204 S1800
M205 X8 Y8
G1 F2400 X53.305 Y140.909 E67.21826
G1 X53.406 Y140.338 E67.24526
G1 X53.566 Y139.739 E67.27413
G1 X53.792 Y139.139 E67.30399
G1 X54.077 Y138.567 E67.33375
G1 X54.415 Y138.028 E67.36337
G1 X54.809 Y137.517 E67.39342
G1 X55.252 Y137.047 E67.42349
G1 X55.73 Y136.632 E67.45297
G1 X56.186 Y136.302 E67.47918
G1 X56.872 Y135.91 E67.51597
G1 X57.398 Y135.677 E67.54276
G1 X57.993 Y135.478 E67.57197
G1 X58.614 Y135.334 E67.60165
G1 X59.253 Y135.252 E67.63165
G1 X59.766 Y135.23 E67.65556
G1 X159.962 Y135.235 E72.32111
G1 X160.541 Y135.278 E72.34814
G1 X161.16 Y135.383 E72.37738
G1 X161.779 Y135.551 E72.40724
G1 X162.386 Y135.782 E72.43748
G1 X162.945 Y136.059 E72.46653
G1 X163.487 Y136.398 E72.4963
G1 X163.952 Y136.751 E72.52349
G1 X164.524 Y137.296 E72.56028
G1 X164.926 Y137.768 E72.58914
G1 X165.299 Y138.305 E72.61959
G1 X165.605 Y138.853 E72.64882
G1 X165.864 Y139.447 E72.67899
G1 X166.059 Y140.053 E72.70863
G1 X166.195 Y140.678 E72.73842
G1 X166.269 Y141.309 E72.768
G1 X166.281 Y141.553 E72.77938
G1 X166.281 Y258.445 E78.22236
G1 X166.234 Y259.063 E78.25122
G1 X166.115 Y259.721 E78.28235
G1 X165.953 Y260.304 E78.31053
G1 X165.709 Y260.927 E78.34168
G1 X165.427 Y261.481 E78.37063
G1 X165.076 Y262.03 E78.40097
G1 X164.687 Y262.524 E78.43025
G1 X164.237 Y262.993 E78.46051
G1 X163.749 Y263.409 E78.49037
G1 X163.221 Y263.777 E78.52034
G1 X162.667 Y264.087 E78.5499
G1 X162.134 Y264.323 E78.57705
G1 X161.539 Y264.522 E78.60626
G1 X160.918 Y264.666 E78.63594
G1 X160.279 Y264.748 E78.66594
G1 X159.766 Y264.77 E78.68985
G1 X59.572 Y264.765 E83.3553
G1 X58.954 Y264.718 E83.38416
G1 X58.295 Y264.599 E83.41535
G1 X57.708 Y264.435 E83.44373
G1 X57.103 Y264.199 E83.47396
G1 X56.541 Y263.915 E83.50328
G1 X55.983 Y263.558 E83.53413
G1 X55.488 Y263.167 E83.5635
G1 X55.073 Y262.773 E83.59015
G1 X54.65 Y262.289 E83.62008
G1 X54.278 Y261.768 E83.64989
G1 X53.958 Y261.21 E83.67984
G1 X53.691 Y260.613 E83.71029
G1 X53.494 Y260.023 E83.73926
G1 X53.35 Y259.402 E83.76894
G1 X53.268 Y258.763 E83.79894
G1 X53.246 Y258.25 E83.82285
G1 X53.251 Y141.555 E89.25666
M204 S3000
M205 X10 Y10
G0 F3000 X53.811 Y141.555
M204 S1800
M205 X8 Y8
G1 F2400 X53.856 Y141.007 E89.28226
G1 X53.957 Y140.436 E89.30926
G1 X54.094 Y139.926 E89.33385
G1 X54.298 Y139.379 E89.36104
G1 X54.557 Y138.856 E89.38821
G1 X54.864 Y138.362 E89.41529
G1 X55.223 Y137.894 E89.44276
G1 X55.628 Y137.463 E89.4703
G1 X56.063 Y137.082 E89.49722
G1 X56.488 Y136.774 E89.52166
G1 X57.135 Y136.404 E89.55637
G1 X57.948 Y136.076 E89.59719
G1 X58.508 Y135.926 E89.62419
G1 X59.087 Y135.83 E89.65152
G1 X59.671 Y135.792 E89.67877
G1 X160.105 Y135.8 E94.35539
G1 X160.838 Y135.889 E94.38978
G1 X161.403 Y136.021 E94.41679
G1 X161.97 Y136.215 E94.4447
G1 X162.49 Y136.451 E94.47129
G1 X162.993 Y136.741 E94.49832
G1 X163.469 Y137.082 E94.52559
G1 X163.85 Y137.411 E94.54903
G1 X164.251 Y137.828 E94.57597
G1 X164.61 Y138.28 E94.60285
G1 X164.93 Y138.778 E94.63041
G1 X165.193 Y139.291 E94.65725
G1 X165.412 Y139.847 E94.68508
G1 X165.567 Y140.393 E94.71151
G1 X165.675 Y140.983 E94.73944
G1 X165.721 Y141.553 E94.76606
G1 X165.721 Y258.445 E100.20905
G1 X165.676 Y259.01 E100.23544
G1 X165.566 Y259.61 E100.26384
G1 X165.416 Y260.145 E100.28971
G1 X165.192 Y260.712 E100.3181
G1 X164.933 Y261.218 E100.34457
G1 X164.61 Y261.72 E100.37237
G1 X164.254 Y262.169 E100.39905
G1 X163.84 Y262.598 E100.42681
G1 X163.394 Y262.977 E100.45406
G1 X162.91 Y263.311 E100.48144
G1 X162.402 Y263.593 E100.5085
G1 X161.584 Y263.924 E100.54959
G1 X161.024 Y264.074 E100.57658
G1 X160.445 Y264.17 E100.60391
G1 X159.861 Y264.208 E100.63116
G1 X59.572 Y264.205 E105.30104
G1 X59.006 Y264.16 E105.32748
G1 X58.406 Y264.05 E105.35588
G1 X57.868 Y263.898 E105.38192
G1 X57.317 Y263.682 E105.40947
G1 X56.803 Y263.42 E105.43634
G1 X56.294 Y263.092 E105.46453
G1 X55.844 Y262.735 E105.49128
G1 X55.224 Y262.107 E105.53237
G1 X54.864 Y261.638 E105.5599
G1 X54.557 Y261.144 E105.58699
G1 X54.293 Y260.606 E105.61489
G1 X54.091 Y260.065 E105.64178
G1 X53.942 Y259.508 E105.66863
G1 X53.846 Y258.929 E105.69596
G1 X53.808 Y258.345 E105.72321
G1 X53.811 Y141.555 E111.16144
M204 S3000
M205 X10 Y10
G0 F3000 X54.371 Y141.555
M204 S1800
M205 X8 Y8
G1 F2400 X54.407 Y141.104 E111.18251
G1 X54.508 Y140.533 E111.20951
G1 X54.749 Y139.752 E111.24757
G1 X54.973 Y139.264 E111.27257
G1 X55.239 Y138.809 E111.29711
G1 X55.549 Y138.378 E111.32183
G1 X55.907 Y137.974 E111.34697
G1 X56.288 Y137.621 E111.37115
G1 X56.713 Y137.299 E111.39598
G1 X57.398 Y136.898 E111.43294
G1 X58.136 Y136.603 E111.46995
G1 X58.645 Y136.469 E111.49446
G1 X59.169 Y136.384 E111.51918
G1 X59.698 Y136.352 E111.54385
G1 X160.064 Y136.359 E116.21732
G1 X160.755 Y136.442 E116.24972
G1 X161.266 Y136.564 E116.27419
G1 X161.781 Y136.742 E116.29956
G1 X162.25 Y136.957 E116.32358
G1 X162.706 Y137.222 E116.34814
G1 X163.136 Y137.532 E116.37282
G1 X163.73 Y138.085 E116.41061
G1 X164.06 Y138.478 E116.43451
G1 X164.366 Y138.925 E116.45973
G1 X164.617 Y139.381 E116.48397
G1 X164.829 Y139.875 E116.509
G1 X164.986 Y140.375 E116.53341
G1 X165.097 Y140.897 E116.55826
G1 X165.154 Y141.418 E116.58266
G1 X165.161 Y141.553 E116.58895
G1 X165.161 Y258.445 E122.03194
G1 X165.119 Y258.958 E122.0559
G1 X165.017 Y259.5 E122.08158
G1 X164.879 Y259.985 E122.10506
G1 X164.675 Y260.497 E122.13073
G1 X164.439 Y260.954 E122.15468
G1 X164.143 Y261.41 E122.17999
G1 X163.821 Y261.814 E122.20405
G1 X163.444 Y262.202 E122.22924
G1 X163.038 Y262.544 E122.25396
G1 X162.6 Y262.845 E122.2787
G1 X162.137 Y263.1 E122.30332
G1 X161.396 Y263.397 E122.34049
G1 X160.887 Y263.531 E122.365
G1 X160.363 Y263.616 E122.38972
G1 X159.834 Y263.648 E122.41439
G1 X59.572 Y263.645 E127.08301
G1 X59.059 Y263.603 E127.10698
G1 X58.516 Y263.501 E127.13271
G1 X58.027 Y263.362 E127.15638
G1 X57.532 Y263.165 E127.18119
G1 X57.065 Y262.925 E127.20564
G1 X56.605 Y262.626 E127.23118
G1 X56.2 Y262.302 E127.25533
G1 X55.639 Y261.73 E127.29264
G1 X55.314 Y261.305 E127.31755
G1 X55.038 Y260.856 E127.34209
G1 X54.8 Y260.368 E127.36738
G1 X54.618 Y259.878 E127.39172
G1 X54.485 Y259.371 E127.41612
G1 X54.4 Y258.847 E127.44084
G1 X54.368 Y258.318 E127.46552
G1 X54.371 Y141.555 E132.90249
M204 S3000
M205 X10 Y10
G0 F3000 X54.933 Y141.494
M204 S1800
M205 X8 Y8
G1 F2400 X55.06 Y140.631 E132.94311
G1 X55.277 Y139.939 E132.97688
G1 X55.518 Y139.432 E133.00302
G1 X55.999 Y138.712 E133.04334
G1 X56.379 Y138.293 E133.06968
G1 X57.045 Y137.749 E133.10972
G1 X57.661 Y137.393 E133.14285
G1 X58.324 Y137.131 E133.17604
G1 X58.861 Y136.996 E133.20183
G1 X59.725 Y136.911 E133.24225
G1 X160.023 Y136.917 E137.91255
G1 X160.672 Y136.996 E137.94299
G1 X161.21 Y137.132 E137.96883
G1 X162.011 Y137.463 E138.00919
G1 X162.487 Y137.748 E138.03502
G1 X163.009 Y138.157 E138.0659
G1 X163.385 Y138.538 E138.09083
G1 X163.9 Y139.236 E138.13122
G1 X164.158 Y139.719 E138.15671
G1 X164.45 Y140.536 E138.19711
G1 X164.56 Y141.091 E138.22346
G1 X164.601 Y141.553 E138.24506
G1 X164.597 Y258.524 E143.69172
G1 X164.468 Y259.389 E143.73244
G1 X164.313 Y259.909 E143.75771
G1 X163.944 Y260.691 E143.79797
G1 X163.628 Y261.166 E143.82454
G1 X163.047 Y261.807 E143.86482
G1 X162.616 Y262.161 E143.89079
G1 X161.873 Y262.606 E143.93112
G1 X161.208 Y262.869 E143.96442
G1 X160.671 Y263.004 E143.9902
G1 X159.807 Y263.089 E144.03063
G1 X59.493 Y263.081 E148.70167
G1 X58.627 Y262.952 E148.74244
G1 X58.106 Y262.796 E148.76776
G1 X57.326 Y262.43 E148.80788
G1 X56.848 Y262.111 E148.83464
G1 X56.359 Y261.687 E148.86478
G1 X55.999 Y261.288 E148.8898
G1 X55.518 Y260.568 E148.93012
G1 X55.274 Y260.052 E148.9567
G1 X55.028 Y259.235 E148.99643
G1 X54.946 Y258.682 E149.02246
G1 X54.926 Y258.25 E149.0426
G1 X54.933 Y141.494 E154.47924
M204 S3000
M205 X10 Y10
G0 F3000 X55.492 Y141.535
M204 S1800
M205 X8 Y8
G1 F2400 X55.611 Y140.728 E154.51723
G1 X55.805 Y140.126 E154.54668
G1 X56.199 Y139.385 E154.58576
G1 X56.736 Y138.728 E154.62527
G1 X57.378 Y138.2 E154.66397
G1 X57.924 Y137.887 E154.69328
G1 X58.512 Y137.658 E154.72266
G1 X59.334 Y137.492 E154.76171
G1 X59.766 Y137.47 E154.78185
G1 X159.982 Y137.476 E159.44833
G1 X160.589 Y137.55 E159.4768
G1 X161.402 Y137.796 E159.51636
G1 X162.131 Y138.183 E159.55479
G1 X162.642 Y138.58 E159.58492
G1 X163.194 Y139.188 E159.62316
G1 X163.629 Y139.908 E159.66233
G1 X163.913 Y140.697 E159.70137
G1 X164.04 Y141.526 E159.74043
G1 X164.04 Y258.471 E165.18587
G1 X163.919 Y259.278 E165.22387
G1 X163.641 Y260.067 E165.26283
G1 X163.211 Y260.789 E165.30196
G1 X162.65 Y261.412 E165.34099
G1 X161.978 Y261.913 E165.38002
G1 X161.401 Y262.205 E165.41014
G1 X160.615 Y262.445 E165.4484
G1 X159.78 Y262.53 E165.48748
G1 X59.546 Y262.524 E170.1548
